<?xml version="1.0" encoding="UTF-8"?>
<map version="1.10" tiledversion="1.10.2" orientation="orthogonal" renderorder="right-down" width="64" height="30" tilewidth="16" tileheight="16" infinite="1" nextlayerid="15" nextobjectid="67">
 <tileset firstgid="1" source="../tilesets/WegzurUni.tsx"/>
 <tileset firstgid="9" source="../../../Zoo/Basic-Tiled.tsx"/>
 <layer id="1" name="Background" width="64" height="30">
  <data encoding="csv">
   <chunk x="0" y="16" width="16" height="16">
0,0,0,0,0,0,0,0,0,0,0,0,0,0,0,0,
0,0,0,0,0,0,0,0,0,0,0,0,0,0,0,0,
0,0,0,0,0,0,0,0,0,0,0,0,0,0,0,0,
0,0,0,0,0,0,0,0,0,0,0,0,0,0,0,0,
0,0,0,0,0,0,0,0,0,0,0,0,0,0,0,0,
0,0,0,0,0,0,0,0,0,0,0,0,0,0,0,0,
0,0,0,0,0,0,0,0,0,0,0,0,0,0,0,0,
0,0,0,0,0,0,0,0,0,0,0,0,0,0,0,0,
0,0,0,0,0,0,0,0,0,0,0,0,0,0,0,0,
0,0,0,0,0,0,0,0,0,0,0,0,0,0,0,0,
0,0,0,0,0,0,0,0,0,0,0,0,0,0,0,0,
0,0,0,0,0,0,0,0,0,0,0,0,0,0,0,0,
0,0,0,0,0,0,0,0,0,0,0,0,0,0,0,0,
7,0,0,0,0,0,0,0,0,0,0,0,0,0,0,0,
0,0,0,0,0,0,0,0,0,0,0,0,0,0,0,0,
0,0,0,0,0,0,0,0,0,0,0,0,0,0,0,0
</chunk>
  </data>
 </layer>
 <layer id="2" name="Tile Layer 2" width="64" height="30">
  <data encoding="csv">
   <chunk x="0" y="-16" width="16" height="16">
0,0,0,0,0,0,0,0,0,0,0,0,0,0,0,0,
0,0,0,0,0,0,0,0,0,0,0,0,0,0,0,0,
0,0,0,0,0,0,0,0,0,0,0,0,0,0,0,0,
0,0,0,0,0,0,0,0,0,0,0,0,0,0,0,0,
0,0,0,0,0,0,0,0,0,0,0,0,0,0,0,0,
0,0,0,0,0,0,0,0,0,0,0,0,0,0,0,0,
0,0,0,0,0,0,0,0,0,0,0,0,0,0,0,0,
0,0,0,0,0,0,0,0,0,0,0,0,0,0,0,0,
0,0,0,0,0,0,0,0,0,0,0,0,0,0,0,0,
0,0,0,0,0,0,0,0,0,0,0,0,0,0,0,0,
0,0,0,0,0,0,0,0,0,0,0,0,0,0,0,0,
0,0,0,8,0,0,0,0,0,0,0,0,0,0,0,0,
0,0,0,0,0,0,0,0,0,0,0,0,0,0,0,0,
0,0,0,0,0,0,0,0,0,0,0,0,0,0,0,0,
0,0,0,0,0,0,0,0,0,0,0,0,0,0,0,0,
0,0,0,0,0,0,0,0,0,0,0,0,0,0,0,0
</chunk>
   <chunk x="0" y="32" width="16" height="16">
0,0,0,0,0,0,0,0,0,0,0,0,0,0,0,0,
2,0,0,0,0,0,0,0,0,0,0,0,0,0,0,0,
0,0,0,0,0,0,0,0,0,0,0,0,0,0,0,0,
0,0,0,0,0,0,0,0,0,0,0,0,0,0,0,0,
0,0,0,0,0,0,0,0,0,0,0,0,0,0,0,0,
0,0,0,0,0,0,0,0,0,0,0,0,0,0,0,0,
0,0,0,0,0,0,0,0,0,0,0,0,0,0,0,0,
0,0,0,0,0,0,0,0,0,0,0,0,0,0,0,0,
0,0,0,0,0,0,0,0,0,0,0,0,0,0,0,0,
0,0,0,0,0,0,0,0,0,0,0,0,0,0,0,0,
0,0,0,0,0,0,0,0,0,0,0,0,0,0,0,0,
0,0,0,0,0,0,0,0,0,0,0,0,0,0,0,0,
0,0,0,0,0,0,0,0,0,0,0,0,0,0,0,0,
0,0,0,0,0,0,0,0,0,0,0,0,0,0,0,0,
0,0,0,0,0,0,0,0,0,0,0,0,0,0,0,0,
0,0,0,0,0,0,0,0,0,0,0,0,0,0,0,0
</chunk>
   <chunk x="112" y="32" width="16" height="16">
0,0,0,0,0,0,0,0,0,0,0,0,0,0,0,0,
0,0,0,0,0,0,0,0,2,0,0,0,0,0,0,0,
0,0,0,0,0,0,0,0,0,0,0,0,0,0,0,0,
0,0,0,0,0,0,0,0,0,0,0,0,0,0,0,0,
0,0,0,0,0,0,0,0,0,0,0,0,0,0,0,0,
0,0,0,0,0,0,0,0,0,0,0,0,0,0,0,0,
0,0,0,0,0,0,0,0,0,0,0,0,0,0,0,0,
0,0,0,0,0,0,0,0,0,0,0,0,0,0,0,0,
0,0,0,0,0,0,0,0,0,0,0,0,0,0,0,0,
0,0,0,0,0,0,0,0,0,0,0,0,0,0,0,0,
0,0,0,0,0,0,0,0,0,0,0,0,0,0,0,0,
0,0,0,0,0,0,0,0,0,0,0,0,0,0,0,0,
0,0,0,0,0,0,0,0,0,0,0,0,0,0,0,0,
0,0,0,0,0,0,0,0,0,0,0,0,0,0,0,0,
0,0,0,0,0,0,0,0,0,0,0,0,0,0,0,0,
0,0,0,0,0,0,0,0,0,0,0,0,0,0,0,0
</chunk>
  </data>
 </layer>
 <objectgroup id="4" name="Ground">
  <object id="2" x="-16" y="304" width="2208" height="240"/>
  <object id="5" x="0" y="-64" width="237.333" height="12"/>
  <object id="6" x="256" y="-48" width="128" height="16"/>
  <object id="7" x="416" y="-16" width="128" height="16"/>
  <object id="8" x="576" y="32" width="128" height="16"/>
  <object id="9" x="751.742" y="-416" width="16.5161" height="512"/>
  <object id="10" x="800" y="-416" width="80" height="16"/>
  <object id="11" x="896" y="-384" width="80" height="16"/>
  <object id="12" x="992" y="-352" width="80" height="16"/>
  <object id="14" x="1088" y="-320" width="80" height="16"/>
  <object id="16" x="1184" y="-288" width="80" height="16"/>
  <object id="18" x="1.42109e-14" y="64" width="768" height="16"/>
  <object id="19" x="1280" y="-256" width="80" height="16"/>
  <object id="22" x="1440" y="-256" width="608" height="16"/>
  <object id="26" x="2032" y="-512" width="16" height="272"/>
  <object id="27" x="1440" y="-346" width="16" height="106"/>
  <object id="28" x="1920" y="-368" width="64" height="16"/>
  <object id="29" x="1760" y="-336" width="64" height="16"/>
  <object id="31" x="1600" y="-368" width="64" height="16"/>
  <object id="32" x="1504" y="-320" width="64" height="16"/>
  <object id="33" template="../../../../object-templates/sign.tx" x="220" y="248" width="52" height="52"/>
  <object id="53" x="1968" y="80" width="208" height="16"/>
  <object id="60" x="932" y="80" width="45.3333" height="16"/>
  <object id="61" x="752" y="77.3333" width="158.667" height="18.6667"/>
 </objectgroup>
 <objectgroup id="12" name="Ladder">
  <object id="59" x="912" y="80" width="21.3333" height="225.333"/>
 </objectgroup>
 <objectgroup id="10" name="Sign"/>
 <objectgroup id="11" name="MovingPlatform">
  <object id="36" template="../../../../object-templates/movingPlatform.tx" x="1360" y="-144" width="80" height="15"/>
  <object id="37" x="1472" y="-64" width="80" height="16"/>
  <object id="38" x="1568" y="-16" width="64" height="16"/>
  <object id="39" x="1664" y="32" width="96" height="16"/>
  <object id="41" x="1440" y="64" width="160" height="16"/>
  <object id="44" x="1172" y="80" width="284" height="16"/>
  <object id="46" x="1578.67" y="80" width="245.333" height="16"/>
  <object id="47" x="1792" y="64" width="192" height="16"/>
  <object id="48" x="961.333" y="64" width="238.667" height="16"/>
 </objectgroup>
 <objectgroup id="6" name="End"/>
 <objectgroup id="5" name="Walls">
  <object id="3" x="2176" y="-592" width="16" height="1200"/>
  <object id="4" x="-16" y="-512" width="16" height="1056"/>
  <object id="49" x="1200" y="64" width="5.33333" height="36"/>
  <object id="50" x="1440" y="64" height="32"/>
  <object id="51" x="1600" y="64" width="1.33333" height="34.6667"/>
  <object id="52" x="1792" y="64" height="32"/>
  <object id="55" x="1984" y="64" height="32"/>
  <object id="65" x="960" y="64" height="32"/>
 </objectgroup>
 <objectgroup id="8" name="Items">
  <object id="66" template="../../../../object-templates/gleiter.tx" x="753" y="-430.5"/>
 </objectgroup>
 <objectgroup id="9" name="NPC">
  <object id="20" x="16" y="-112" width="32" height="48"/>
 </objectgroup>
 <layer id="14" name="Ladder" width="64" height="30">
  <data encoding="csv">
   <chunk x="48" y="0" width="16" height="16">
0,0,0,0,0,0,0,0,0,0,0,0,0,0,0,0,
0,0,0,0,0,0,0,0,0,0,0,0,0,0,0,0,
0,0,0,0,0,0,0,0,0,0,0,0,0,0,0,0,
0,0,0,0,0,0,0,0,0,0,0,0,0,0,0,0,
0,0,0,0,0,0,0,0,0,0,0,0,0,0,0,0,
0,0,0,0,0,0,0,0,0,60,0,0,0,0,0,0,
0,0,0,0,0,0,0,0,0,80,0,0,0,0,0,0,
0,0,0,0,0,0,0,0,0,80,0,0,0,0,0,0,
0,0,0,0,0,0,0,0,0,80,0,0,0,0,0,0,
0,0,0,0,0,0,0,0,0,80,0,0,0,0,0,0,
0,0,0,0,0,0,0,0,0,80,0,0,0,0,0,0,
0,0,0,0,0,0,0,0,0,80,0,0,0,0,0,0,
0,0,0,0,0,0,0,0,0,80,0,0,0,0,0,0,
0,0,0,0,0,0,0,0,0,80,0,0,0,0,0,0,
0,0,0,0,0,0,0,0,0,80,0,0,0,0,0,0,
0,0,0,0,0,0,0,0,0,80,0,0,0,0,0,0
</chunk>
   <chunk x="48" y="16" width="16" height="16">
0,0,0,0,0,0,0,0,0,80,0,0,0,0,0,0,
0,0,0,0,0,0,0,0,0,80,0,0,0,0,0,0,
0,0,0,0,0,0,0,0,0,1073741884,0,0,0,0,0,0,
0,0,0,0,0,0,0,0,0,0,0,0,0,0,0,0,
0,0,0,0,0,0,0,0,0,0,0,0,0,0,0,0,
0,0,0,0,0,0,0,0,0,0,0,0,0,0,0,0,
0,0,0,0,0,0,0,0,0,0,0,0,0,0,0,0,
0,0,0,0,0,0,0,0,0,0,0,0,0,0,0,0,
0,0,0,0,0,0,0,0,0,0,0,0,0,0,0,0,
0,0,0,0,0,0,0,0,0,0,0,0,0,0,0,0,
0,0,0,0,0,0,0,0,0,0,0,0,0,0,0,0,
0,0,0,0,0,0,0,0,0,0,0,0,0,0,0,0,
0,0,0,0,0,0,0,0,0,0,0,0,0,0,0,0,
0,0,0,0,0,0,0,0,0,0,0,0,0,0,0,0,
0,0,0,0,0,0,0,0,0,0,0,0,0,0,0,0,
0,0,0,0,0,0,0,0,0,0,0,0,0,0,0,0
</chunk>
  </data>
 </layer>
</map>
