<?xml version="1.0" encoding="UTF-8"?>
<map version="1.10" tiledversion="1.11.0" orientation="orthogonal" renderorder="right-down" width="60" height="14" tilewidth="16" tileheight="16" infinite="0" nextlayerid="14" nextobjectid="45">
 <tileset firstgid="1" source="hbf12.tsx"/>
 <tileset firstgid="353" source="Sky.tsx"/>
 <tileset firstgid="3425" source="tilesets/HBF/TX Village Props.tsx"/>
 <tileset firstgid="6561" source="TX Village Props.tsx"/>
 <tileset firstgid="9697" source="tilesets/HBF/sheet.tsx"/>
 <tileset firstgid="9802" source="four-seasons-tileset.tsx"/>
 <tileset firstgid="9928" source="../../../../final/hbffinal.tsx"/>
 <tileset firstgid="11377" source="../../../../final/hbbf.tsx"/>
 <layer id="13" name="HBFBackground" width="60" height="14">
  <data encoding="csv">
11377,11378,11379,11380,11381,11382,11383,11384,11385,11386,11387,11388,11389,11390,11391,11392,11393,11394,11395,11396,11397,11398,11399,11400,11401,11402,11403,11404,11405,11406,11407,11408,11409,11410,11411,11412,11413,11414,11415,11416,11417,11418,11419,11420,11421,11422,11423,11424,11425,11426,11427,11428,11429,11430,11431,11432,11433,11434,11435,11436,
11437,11438,11439,11440,11441,11442,11443,11444,11445,11446,11447,11448,11449,11450,11451,11452,11453,11454,11455,11456,11457,11458,11459,11460,11461,11462,11463,11464,11465,11466,11467,11468,11469,11470,11471,11472,11473,11474,11475,11476,11477,11478,11479,11480,11481,11482,11483,11484,11485,11486,11487,11488,11489,11490,11491,11492,11493,11494,11495,11496,
11497,11498,11499,11500,11501,11502,11503,11504,11505,11506,11507,11508,11509,11510,11511,11512,11513,11514,11515,11516,11517,11518,11519,11520,11521,11522,11523,11524,11525,11526,11527,11528,11529,11530,11531,11532,11533,11534,11535,11536,11537,11538,11539,11540,11541,11542,11543,11544,11545,11546,11547,11548,11549,11550,11551,11552,11553,11554,11555,11556,
11557,11558,11559,11560,11561,11562,11563,11564,11565,11566,11567,11568,11569,11570,11571,11572,11573,11574,11575,11576,11577,11578,11579,11580,11581,11582,11583,11584,11585,11586,11587,11588,11589,11590,11591,11592,11593,11594,11595,11596,11597,11598,11599,11600,11601,11602,11603,11604,11605,11606,11607,11608,11609,11610,11611,11612,11613,11614,11615,11616,
11617,11618,11619,11620,11621,11622,11623,11624,11625,11626,11627,11628,11629,11630,11631,11632,11633,11634,11635,11636,11637,11638,11639,11640,11641,11642,11643,11644,11645,11646,11647,11648,11649,11650,11651,11652,11653,11654,11655,11656,11657,11658,11659,11660,11661,11662,11663,11664,11665,11666,11667,11668,11669,11670,11671,11672,11673,11674,11675,11676,
11677,11678,11679,11680,11681,11682,11683,11684,11685,11686,11687,11688,11689,11690,11691,11692,11693,11694,11695,11696,11697,11698,11699,11700,11701,11702,11703,11704,11705,11706,11707,11708,11709,11710,11711,11712,11713,11714,11715,11716,11717,11718,11719,11720,11721,11722,11723,11724,11725,11726,11727,11728,11729,11730,11731,11732,11733,11734,11735,11736,
11737,11738,11739,11740,11741,11742,11743,11744,11745,11746,11747,11748,11749,11750,11751,11752,11753,11754,11755,11756,11757,11758,11759,11760,11761,11762,11763,11764,11765,11766,11767,11768,11769,11770,11771,11772,11773,11774,11775,11776,11777,11778,11779,11780,11781,11782,11783,11784,11785,11786,11787,11788,11789,11790,11791,11792,11793,11794,11795,11796,
11797,11798,11799,11800,11801,11802,11803,11804,11805,11806,11807,11808,11809,11810,11811,11812,11813,11814,11815,11816,11817,11818,11819,11820,11821,11822,11823,11824,11825,11826,11827,11828,11829,11830,11831,11832,11833,11834,11835,11836,11837,11838,11839,11840,11841,11842,11843,11844,11845,11846,11847,11848,11849,11850,11851,11852,11853,11854,11855,11856,
11857,11858,11859,11860,11861,11862,11863,11864,11865,11866,11867,11868,11869,11870,11871,11872,11873,11874,11875,11876,11877,11878,11879,11880,11881,11882,11883,11884,11885,11886,11887,11888,11889,11890,11891,11892,11893,11894,11895,11896,11897,11898,11899,11900,11901,11902,11903,11904,11905,11906,11907,11908,11909,11910,11911,11912,11913,11914,11915,11916,
11917,11918,11919,11920,11921,11922,11923,11924,11925,11926,11927,11928,11929,11930,11931,11932,11933,11934,11935,11936,11937,11938,11939,11940,11941,11942,11943,11944,11945,11946,11947,11948,11949,11950,11951,11952,11953,11954,11955,11956,11957,11958,11959,11960,11961,11962,11963,11964,11965,11966,11967,11968,11969,11970,11971,11972,11973,11974,11975,11976,
11977,11978,11979,11980,11981,11982,11983,11984,11985,11986,11987,11988,11989,11990,11991,11992,11993,11994,11995,11996,11997,11998,11999,12000,12001,12002,12003,12004,12005,12006,12007,12008,12009,12010,12011,12012,12013,12014,12015,12016,12017,12018,12019,12020,12021,12022,12023,12024,12025,12026,12027,12028,12029,12030,12031,12032,12033,12034,12035,12036,
12037,12038,12039,12040,12041,12042,12043,12044,12045,12046,12047,12048,12049,12050,12051,12052,12053,12054,12055,12056,12057,12058,12059,12060,12061,12062,12063,12064,12065,12066,12067,12068,12069,12070,12071,12072,12073,12074,12075,12076,12077,12078,12079,12080,12081,12082,12083,12084,12085,12086,12087,12088,12089,12090,12091,12092,12093,12094,12095,12096,
12097,12098,12099,12100,12101,12102,12103,12104,12105,12106,12107,12108,12109,12110,12111,12112,12113,12114,12115,12116,12117,12118,12119,12120,12121,12122,12123,12124,12125,12126,12127,12128,12129,12130,12131,12132,12133,12134,12135,12136,12137,12138,12139,12140,12141,12142,12143,12144,12145,12146,12147,12148,12149,12150,12151,12152,12153,12154,12155,12156,
12157,12158,12159,12160,12161,12162,12163,12164,12165,12166,12167,12168,12169,12170,12171,12172,12173,12174,12175,12176,12177,12178,12179,12180,12181,12182,12183,12184,12185,12186,12187,12188,12189,12190,12191,12192,12193,12194,12195,12196,12197,12198,12199,12200,12201,12202,12203,12204,12205,12206,12207,12208,12209,12210,12211,12212,12213,12214,12215,12216
</data>
 </layer>
 <layer id="1" name="Background" width="60" height="14" visible="0">
  <data encoding="csv">
1889,1890,1891,1892,1893,1894,1895,1896,1897,1898,1899,1900,1901,1902,1903,1904,1905,1906,1907,1908,1909,1910,1911,1912,1913,1914,1915,1916,1917,1918,1919,1920,1921,1925,1926,1927,1928,1929,1930,1931,1932,1933,1934,1935,1936,1937,1938,1939,1940,1941,1942,1943,1944,1945,1946,1947,1948,1949,1950,1951,
1953,1954,1955,1956,1957,1958,1959,1960,1961,1962,1963,1964,1965,1966,1967,1968,1969,1970,1971,1972,1973,1974,1975,1976,1977,1978,1979,1980,1981,1982,1983,1984,1985,1989,1990,1991,1992,1993,1994,1995,1996,1997,1998,1999,2000,2001,2002,2003,2004,2005,2006,2007,2008,2009,2010,2011,2012,2013,2014,2015,
2017,2018,2019,2020,2021,2022,2023,2024,2025,2026,2027,2028,2029,2030,2031,2032,2033,2034,2035,2036,2037,2038,2039,2040,2041,2042,2043,2044,2045,2046,2047,2048,2049,2053,2054,2055,2056,2057,2058,2059,2060,2061,2062,2063,2064,2065,2066,2067,2068,2069,2070,2071,2072,2073,2074,2075,2076,2077,2078,2079,
2081,2082,2083,2084,2085,2086,2087,2088,2089,2090,2091,2092,2093,2094,2095,2096,2097,2098,2099,2100,2101,2102,2103,2104,2105,2106,2107,2108,2109,2110,2111,2112,2113,2117,2118,2119,2120,2121,2122,2123,2124,2125,2126,2127,2128,2129,2130,2131,2132,2133,2134,2135,2136,2137,2138,2139,2140,2141,2142,2143,
2145,2146,2147,2148,2149,2150,2151,2152,2153,2154,2155,2156,2157,2158,2159,2160,2161,2162,2163,2164,2165,2166,2167,2168,2169,2170,2171,2172,2173,2174,2175,2176,2177,2181,2182,2183,2184,2185,2186,2187,2188,2189,2190,2191,2192,2193,2194,2195,2196,2197,2198,2199,2200,2201,2202,2203,2204,2205,2206,2207,
2209,2210,2211,2212,2213,2214,2215,2216,2217,2218,2219,2220,2221,2222,2223,2224,2225,2226,2227,2228,2229,2230,2231,2232,2233,2234,2235,2236,2237,2238,2239,2240,2241,2245,2246,2247,2248,2249,2250,2251,2252,2253,2254,2255,2256,2257,2258,2259,2260,2261,2262,2263,2264,2265,2266,2267,2268,2269,2270,2271,
177,178,179,180,181,182,183,184,185,186,187,188,189,190,191,192,193,194,195,196,197,198,177,178,179,180,181,182,183,184,185,186,187,188,189,190,191,192,193,194,195,196,197,198,177,178,179,180,181,182,183,184,185,186,187,188,189,190,191,192,
199,200,201,202,203,204,205,206,207,208,209,210,211,212,213,214,215,216,217,218,219,220,199,200,201,202,203,204,205,206,207,208,209,210,211,212,213,214,215,216,217,218,219,220,199,200,201,202,203,204,205,206,207,208,209,210,211,212,213,214,
221,222,223,224,225,226,227,228,229,230,231,232,233,234,235,236,237,238,239,240,241,242,221,222,223,224,225,226,227,228,229,230,231,232,233,234,235,236,237,238,239,240,241,242,221,222,223,224,225,226,227,228,229,230,231,232,233,234,235,236,
243,244,245,246,247,248,249,250,251,252,253,254,255,256,257,258,259,260,261,262,263,264,243,244,245,246,247,248,249,250,251,252,253,254,255,256,257,258,259,260,261,262,263,264,243,244,245,246,247,248,249,250,251,252,253,254,255,256,257,258,
265,266,267,268,269,270,271,272,273,274,275,276,277,278,279,280,281,282,283,284,285,286,265,266,267,268,269,270,271,272,273,274,275,276,277,278,279,280,281,282,283,284,285,286,265,266,267,268,269,270,271,272,273,274,275,276,277,278,279,280,
287,288,289,290,291,292,293,294,295,296,297,298,299,300,301,302,303,304,305,306,307,308,287,288,289,290,291,292,293,294,295,296,297,298,299,300,301,302,303,304,305,306,307,308,287,288,289,290,291,292,293,294,295,296,297,298,299,300,301,302,
309,310,311,312,313,314,315,316,317,318,319,320,321,322,323,324,325,326,327,328,329,330,309,310,311,312,313,314,315,316,317,318,319,320,321,322,323,324,325,326,327,328,329,330,309,310,311,312,313,314,315,316,317,318,319,320,321,322,323,324,
331,332,333,334,335,336,337,338,339,340,341,342,343,344,345,346,347,348,349,350,351,352,331,332,333,334,335,336,337,338,339,340,341,342,343,344,345,346,347,348,349,350,351,352,331,332,333,334,335,336,337,338,339,340,341,342,343,344,345,346
</data>
 </layer>
 <layer id="2" name="Objects" width="60" height="14">
  <data encoding="csv">
0,0,0,0,0,0,0,0,0,0,0,0,0,0,0,0,0,0,0,0,0,0,0,0,0,0,0,0,0,0,0,0,0,0,0,0,0,0,0,0,0,0,0,0,0,0,0,0,0,0,0,0,0,0,0,0,0,0,0,0,
0,0,0,0,0,0,0,0,0,0,0,0,0,0,0,0,0,0,0,0,0,0,0,0,0,0,0,0,0,0,0,0,0,0,0,0,0,0,0,0,0,0,0,0,0,0,0,0,0,0,0,0,0,0,0,0,0,0,0,0,
0,0,0,0,0,0,0,0,0,0,0,0,0,0,0,0,0,0,0,0,0,0,0,0,0,0,0,0,0,0,0,0,0,0,0,0,0,0,0,0,0,0,0,0,0,0,0,9763,4604,4605,4606,0,0,0,0,0,0,0,0,0,
0,0,0,0,0,0,0,0,0,0,0,0,0,0,0,0,0,0,0,0,0,0,0,0,0,0,0,0,0,0,0,0,0,0,0,0,0,0,0,0,0,0,0,0,0,0,0,9778,0,0,0,0,0,0,0,0,0,0,0,0,
0,0,0,0,0,0,0,0,0,0,0,0,0,0,0,0,0,0,0,0,0,0,0,7740,7741,7742,0,0,0,0,0,0,4604,4605,4606,0,0,0,0,0,0,0,0,0,0,0,0,9763,0,0,0,0,0,0,0,0,0,0,0,0,
0,0,0,0,0,0,0,3772,0,0,0,0,0,0,0,0,0,0,0,0,0,0,0,0,0,0,0,0,0,0,0,0,0,0,0,0,0,0,0,0,0,0,0,0,0,0,0,9778,0,0,0,0,0,0,0,0,0,0,0,0,
0,0,0,0,0,0,0,0,0,0,0,0,0,0,0,0,0,0,0,0,0,0,0,0,0,0,0,0,0,0,0,0,0,0,0,0,0,0,0,0,0,0,0,0,7740,7741,7742,0,0,0,0,0,0,0,0,0,0,0,0,0,
0,0,0,0,0,0,0,0,0,0,0,4604,4605,4606,0,0,0,0,0,0,0,0,0,0,0,0,0,0,0,0,0,0,0,0,0,0,0,3800,3801,0,9811,0,0,0,0,0,0,0,0,0,0,0,0,0,0,0,0,3553,3554,0,
0,0,0,0,0,0,0,0,0,0,0,0,0,0,4252,4253,4254,0,0,0,0,0,0,0,0,0,0,0,0,0,0,0,0,0,0,0,0,3856,3857,0,0,0,0,0,0,0,0,0,0,0,0,0,0,0,0,0,0,3609,3610,0,
0,0,0,9811,0,0,0,4604,4605,4606,0,0,0,0,4308,4309,4310,0,0,0,0,0,0,0,0,0,4604,4605,4606,0,0,0,0,0,0,0,0,3912,3913,0,0,0,0,0,0,0,0,0,0,0,0,0,5413,5414,5415,5416,5417,5418,5419,5420,
0,0,0,0,4597,0,0,0,0,0,0,0,0,0,4364,4365,4366,0,0,0,0,0,0,0,0,0,0,0,4597,0,0,0,0,0,0,9729,0,3968,3969,0,0,0,0,0,0,0,0,0,0,0,0,0,5469,5470,5471,5472,5473,5474,5475,5476,
0,0,0,0,4653,0,0,0,0,0,0,0,0,0,4420,4421,4422,0,0,0,0,0,0,0,0,0,0,0,4653,0,0,0,0,0,0,0,0,4024,4025,0,0,0,0,0,0,0,0,0,0,0,0,0,5525,5526,5527,5528,5529,5530,5531,5532,
0,0,0,0,0,0,0,0,0,0,0,0,0,0,0,0,0,0,0,0,0,0,0,0,0,0,0,0,0,0,0,0,0,0,0,0,0,0,0,0,0,0,0,0,0,0,0,0,0,0,0,0,0,0,0,0,0,0,0,0,
0,0,0,0,0,0,0,0,0,0,0,0,0,0,0,0,0,0,0,0,0,0,0,0,0,0,0,0,0,0,0,0,0,0,0,0,0,0,0,0,0,0,0,0,0,0,0,0,0,0,0,0,0,0,0,0,0,0,0,0
</data>
 </layer>
 <objectgroup id="7" name="MovingPlatform">
  <object id="12" name="MovingPlatformHor." x="367.333" y="68.6667" width="49.3333" height="6.66667"/>
  <object id="13" name="Start" x="416.667" y="67.3333">
   <point/>
  </object>
  <object id="14" name="End" x="320" y="62.6667">
   <point/>
  </object>
 </objectgroup>
 <objectgroup id="8" name="MovingPlatform">
  <object id="15" name="MovingPlatformVert." x="48" y="142.667" width="13.3333" height="12"/>
  <object id="17" name="StartV" x="60" y="153.333">
   <point/>
  </object>
  <object id="18" name="EndV" x="64" y="86.6667">
   <point/>
  </object>
  <object id="22" name="MovingPlatfomVert." x="639.333" y="112.667" width="13.3333" height="15.3333"/>
  <object id="42" name="StartV2" x="650" y="127.333">
   <point/>
  </object>
  <object id="43" name="EndV2" x="647.333" y="40">
   <point/>
  </object>
 </objectgroup>
 <objectgroup id="9" name="Items">
  <object id="23" name="Item" x="49.3333" y="132" width="7.33333" height="8.66667"/>
  <object id="24" name="Item" x="117.333" y="70.6667" width="5.33333" height="6.66667"/>
  <object id="25" name="Item" x="144" y="140.667" width="5.33333" height="5.33333"/>
  <object id="26" name="Item" x="210" y="107.333" width="8" height="10"/>
  <object id="27" name="Item" x="195.333" y="109.333" width="6.66667" height="6.66667"/>
  <object id="28" name="Item" x="175.333" y="108" width="8" height="5.33333"/>
  <object id="29" name="Item" x="453.333" y="142.667" width="6.66667" height="6"/>
  <object id="30" name="Item" x="883.333" y="129.333" width="10.6667" height="10"/>
  <object id="31" name="Item" x="858.667" y="130" width="13.3333" height="11.3333"/>
  <object id="32" name="Item" x="801.333" y="26.6667" width="8.66667" height="7.33333"/>
  <object id="33" name="Item" x="772.667" y="28" width="11.3333" height="7.33333"/>
  <object id="34" name="Item" x="512.667" y="56" width="8.66667" height="11.3333"/>
  <object id="35" name="Item" x="644" y="36" width="8" height="6"/>
  <object id="36" name="Item" x="732.667" y="88" width="6.66667" height="6.66667"/>
 </objectgroup>
 <objectgroup id="10" name="Gleiter">
  <object id="37" name="Gleiter" x="284" y="48.6667" width="10" height="8.66667"/>
 </objectgroup>
 <objectgroup id="11" name="Enemies">
  <object id="38" name="PatrollingEnemy" x="421.333" y="136" width="13.3333" height="11.3333"/>
  <object id="39" name="Knight" x="327.333" y="165.333" width="13.3333" height="14"/>
  <object id="44" name="UnhingendEnemy" x="743.333" y="163.333" width="24" height="16"/>
 </objectgroup>
 <objectgroup id="5" name="Ladder">
  <object id="9" name="Ladder" x="754.667" y="32.6667" width="10.6667" height="67.3333"/>
 </objectgroup>
 <objectgroup id="12" name="Walls"/>
 <objectgroup id="3" name="Ground">
  <object id="1" x="110.667" y="147.333" width="49.3333" height="9.33333"/>
  <object id="2" x="175.333" y="116" width="46.6667" height="7.33333"/>
  <object id="3" x="417.333" y="147.333" width="46.6667" height="8.66667"/>
  <object id="4" x="510.667" y="68" width="48" height="6.66667"/>
  <object id="5" x="767.333" y="36" width="48.6667" height="7.33333"/>
  <object id="6" x="843.333" y="142.667" width="104" height="36.6667"/>
  <object id="7" x="0" y="180" width="958.667" height="10.6667"/>
  <object id="10" x="704" y="101.333" width="47.3333" height="7.33333"/>
  <object id="21" x="115.333" y="80" width="10.6667" height="8"/>
  <object id="41" name="Patrolling Enemy" x="113.333" y="134" width="10" height="12.6667"/>
 </objectgroup>
 <objectgroup id="6" name="Signs">
  <object id="11" name="Info" x="557.333" y="167.333" width="12.6667" height="11.3333"/>
 </objectgroup>
 <objectgroup id="4" name="End">
  <object id="8" name="End" x="916.667" y="120" width="17.3333" height="18.6667"/>
 </objectgroup>
</map>
