<?xml version="1.0" encoding="UTF-8"?>
<map version="1.10" tiledversion="1.11.0" orientation="orthogonal" renderorder="right-down" width="134" height="16" tilewidth="16" tileheight="16" infinite="0" nextlayerid="21" nextobjectid="234">
 <tileset firstgid="1" source="tilesets/Luisenviertel/Luisenviertel-Sky.tsx"/>
 <tileset firstgid="417" source="tilesets/Luisenviertel/Luisenviertel-Boden.tsx"/>
 <tileset firstgid="833" source="tilesets/Luisenviertel/Luisenviertel-1-house.tsx"/>
 <tileset firstgid="1249" source="tilesets/Luisenviertel/Luisenviertel-2-house.tsx"/>
 <tileset firstgid="1353" source="tilesets/Luisenviertel/Luisenviertel-allHouses.tsx"/>
 <tileset firstgid="2088" source="tilesets/sheet.tsx"/>
 <objectgroup id="6" name="Walls">
  <object id="23" x="0" y="0.666667" height="254.333"/>
  <object id="83" x="800" y="129.273" height="126.727"/>
  <object id="122" x="880" y="128" height="128"/>
  <object id="172" x="1744" y="192" height="48"/>
  <object id="180" x="1744" y="192" height="48"/>
  <object id="186" x="1696" y="193.208" height="46.7917"/>
 </objectgroup>
 <objectgroup id="7" name="Items">
  <object id="53" template="object-templates/hammer.tx" x="432" y="192"/>
  <object id="120" template="object-templates/page.tx" x="0" y="192"/>
  <object id="127" template="object-templates/page.tx" x="528" y="80">
   <properties>
    <property name="ID" type="int" value="1"/>
   </properties>
  </object>
  <object id="130" template="object-templates/key.tx" x="832" y="48"/>
  <object id="159" template="object-templates/page.tx" x="1008" y="32">
   <properties>
    <property name="ID" type="int" value="2"/>
   </properties>
  </object>
  <object id="205" template="object-templates/hammer.tx" x="1920" y="208"/>
  <object id="206" template="object-templates/page.tx" x="2112" y="112">
   <properties>
    <property name="ID" type="int" value="4"/>
   </properties>
  </object>
  <object id="232" template="object-templates/page.tx" x="1840" y="16">
   <properties>
    <property name="ID" type="int" value="3"/>
   </properties>
  </object>
 </objectgroup>
 <objectgroup id="9" name="End">
  <object id="22" x="2000" y="144" width="131.5" height="86.3383"/>
 </objectgroup>
 <objectgroup id="10" name="Enemies">
  <object id="115" template="object-templates/patrollingEnemy.tx" x="160" y="208">
   <properties>
    <property name="type" value="rotatingCoffeeBean"/>
   </properties>
  </object>
  <object id="116" template="object-templates/patrollingEnemy.tx" x="640" y="192">
   <properties>
    <property name="type" value="rotatingCoffeeBean"/>
   </properties>
  </object>
  <object id="131" template="object-templates/patrollingEnemy.tx" x="572.667" y="191.333">
   <properties>
    <property name="type" value="rotatingCoffeeBean"/>
   </properties>
  </object>
  <object id="193" template="object-templates/knight.tx" x="1392" y="192">
   <properties>
    <property name="type" value="rotatingCoffeeBean"/>
   </properties>
  </object>
  <object id="209" template="object-templates/knight.tx" x="1568" y="208">
   <properties>
    <property name="type" value="rotatingCoffeeBean"/>
   </properties>
  </object>
  <object id="217" template="object-templates/knight.tx" x="1808" y="160">
   <properties>
    <property name="type" value="rotatingCoffeeBean"/>
   </properties>
  </object>
  <object id="218" template="object-templates/knight.tx" x="1872" y="96">
   <properties>
    <property name="type" value="rotatingCoffeeBean"/>
   </properties>
  </object>
  <object id="219" template="object-templates/knight.tx" x="1808" y="16">
   <properties>
    <property name="type" value="rotatingCoffeeBean"/>
   </properties>
  </object>
 </objectgroup>
 <objectgroup id="11" name="MovingPlatform">
  <object id="125" template="object-templates/GoalPosition.tx" x="528" y="176"/>
  <object id="126" template="object-templates/Schalter.tx" x="1024" y="208"/>
  <object id="228" template="object-templates/SchalterMovingPlatform.tx" x="968" y="275">
   <properties>
    <property name="goalPosition" type="object" value="125"/>
    <property name="rewindable" type="bool" value="false"/>
    <property name="schalter" type="object" value="126"/>
   </properties>
  </object>
  <object id="229" template="object-templates/SchalterMovingPlatform.tx" x="1800" y="267">
   <properties>
    <property name="goalPosition" type="object" value="231"/>
    <property name="rewindable" type="bool" value="true"/>
    <property name="schalter" type="object" value="230"/>
   </properties>
  </object>
  <object id="230" template="object-templates/Schalter.tx" x="1632" y="208"/>
  <object id="231" template="object-templates/GoalPosition.tx" x="1843" y="38"/>
 </objectgroup>
 <objectgroup id="12" name="Ladder"/>
 <objectgroup id="5" name="Ground">
  <object id="71" x="0" y="224" width="2143.35" height="31.9637"/>
  <object id="110" x="800" y="112" width="80" height="16"/>
  <object id="112" x="816" y="96" width="48" height="16"/>
  <object id="113" x="832" y="80" width="16" height="16"/>
  <object id="114" x="832" y="64" width="16" height="16"/>
  <object id="147" x="960" y="48" width="96" height="16"/>
  <object id="148" x="1088" y="48" width="96" height="16"/>
  <object id="150" x="1260" y="86" width="10.875" height="10"/>
  <object id="151" x="1252.38" y="96" width="27.5" height="16"/>
  <object id="152" x="1238.38" y="112" width="53.375" height="16"/>
  <object id="153" x="1308.25" y="110.25" width="83.5" height="16"/>
  <object id="154" x="1463.25" y="94" width="58" height="16"/>
  <object id="155" x="1472.25" y="81.8333" width="40" height="13.3333"/>
  <object id="156" x="1485.75" y="70" width="15" height="11"/>
  <object id="157" x="1454.25" y="106.5" width="76" height="14"/>
  <object id="166" x="1696.67" y="183.333" width="48" height="51.6667"/>
  <object id="169" x="1604" y="117.25" width="23" height="3.5"/>
  <object id="170" x="1597" y="121" width="36" height="4.5"/>
  <object id="171" x="1585.75" y="127" width="59.5" height="5.25"/>
  <object id="181" x="1291.63" y="128" width="16" height="7.63636"/>
  <object id="182" x="1295.25" y="117.75" width="4.25" height="9.625"/>
  <object id="183" x="1299.63" y="123.75" width="3.625" height="3.5"/>
  <object id="188" x="1228" y="121" width="11.6667" height="5"/>
  <object id="204" x="2008.67" y="128.333" width="119" height="16"/>
 </objectgroup>
 <objectgroup id="13" name="Signs">
  <object id="190" template="object-templates/sign.tx" x="368" y="192">
   <properties>
    <property name="Text" value="Drücke die Interaktionstaste, um mit dem Hammer die Mauer zu zerstören"/>
   </properties>
  </object>
  <object id="192" template="object-templates/sign.tx" x="96" y="192">
   <properties>
    <property name="Text" value="Die Kaffeebohnen aus dem Café sind entflohen und wollen Rache!!!"/>
   </properties>
  </object>
  <object id="208" template="object-templates/sign.tx" x="1856" y="192">
   <properties>
    <property name="Text" value="Du bist am Café angekommen und hast das Luisenviertel gerettet"/>
   </properties>
  </object>
  <object id="233" template="object-templates/sign.tx" x="992" y="192">
   <properties>
    <property name="Text" value="Bitte Klingeln"/>
   </properties>
  </object>
 </objectgroup>
 <objectgroup id="14" name="Doors">
  <object id="129" template="object-templates/door.tx" x="1167.82" y="3.93939"/>
 </objectgroup>
 <objectgroup id="15" name="Brick">
  <object id="74" template="object-templates/Brick.tx" x="512" y="128"/>
  <object id="76" template="object-templates/Brick.tx" x="784" y="144"/>
  <object id="92" template="object-templates/Brick.tx" x="784" y="48">
   <properties>
    <property name="rewindable" type="bool" value="false"/>
   </properties>
  </object>
  <object id="118" template="object-templates/Brick.tx" x="16" y="160"/>
  <object id="121" template="object-templates/Brick.tx" x="16" y="64"/>
  <object id="203" template="object-templates/Brick.tx" x="1984" y="144"/>
 </objectgroup>
 <layer id="16" name="Sky" width="134" height="16">
  <data encoding="csv">
1,2,3,4,1,2,3,4,5,6,7,8,9,10,11,12,13,14,15,16,17,18,19,20,21,22,23,24,25,26,1,2,3,4,5,6,7,8,9,10,11,12,13,14,15,16,17,18,19,20,21,22,23,24,25,26,1,2,3,4,5,6,7,8,9,10,11,12,13,14,15,16,17,18,19,20,21,22,23,24,25,26,1,2,3,4,5,6,7,8,9,10,11,12,13,14,15,16,17,18,19,20,21,22,23,24,25,26,1,2,3,4,5,6,7,8,9,10,11,12,13,14,15,16,17,18,19,20,21,22,23,24,25,26,
27,28,29,30,27,28,29,30,31,32,33,34,35,36,37,38,39,40,41,42,43,44,45,46,47,48,49,50,51,52,27,28,29,30,31,32,33,34,35,36,37,38,39,40,41,42,43,44,45,46,47,48,49,50,51,52,27,28,29,30,31,32,33,34,35,36,37,38,39,40,41,42,43,44,45,46,47,48,49,50,51,52,27,28,29,30,31,32,33,34,35,36,37,38,39,40,41,42,43,44,45,46,47,48,49,50,51,52,27,28,29,30,31,32,33,34,35,36,37,38,39,40,41,42,43,44,45,46,47,48,49,50,51,52,
53,54,55,56,53,54,55,56,57,58,59,60,61,62,63,64,65,66,67,68,69,70,71,72,73,74,75,76,77,78,53,54,55,56,57,58,59,60,61,62,63,64,65,66,67,68,69,70,71,72,73,74,75,76,77,78,53,54,55,56,57,58,59,60,61,62,63,64,65,66,67,68,69,70,71,72,73,74,75,76,77,78,53,54,55,56,57,58,59,60,61,62,63,64,65,66,67,68,69,70,71,72,73,74,75,76,77,78,53,54,55,56,57,58,59,60,61,62,63,64,65,66,67,68,69,70,71,72,73,74,75,76,77,78,
79,80,81,82,79,80,81,82,83,84,85,86,87,88,89,90,91,92,93,94,95,96,97,98,99,100,101,102,103,104,79,80,81,82,83,84,85,86,87,88,89,90,91,92,93,94,95,96,97,98,99,100,101,102,103,104,79,80,81,82,83,84,85,86,87,88,89,90,91,92,93,94,95,96,97,98,99,100,101,102,103,104,79,80,81,82,83,84,85,86,87,88,89,90,91,92,93,94,95,96,97,98,99,100,101,102,103,104,79,80,81,82,83,84,85,86,87,88,89,90,91,92,93,94,95,96,97,98,99,100,101,102,103,104,
105,106,107,108,105,106,107,108,109,110,111,112,113,114,115,116,117,118,119,120,121,122,123,124,125,126,127,128,129,130,105,106,107,108,109,110,111,112,113,114,115,116,117,118,119,120,121,122,123,124,125,126,127,128,129,130,105,106,107,108,109,110,111,112,113,114,115,116,117,118,119,120,121,122,123,124,125,126,127,128,129,130,105,106,107,108,109,110,111,112,113,114,115,116,117,118,119,120,121,122,123,124,125,126,127,128,129,130,105,106,107,108,109,110,111,112,113,114,115,116,117,118,119,120,121,122,123,124,125,126,127,128,129,130,
131,132,133,134,131,132,133,134,135,136,137,138,139,140,141,142,143,144,145,146,147,148,149,150,151,152,153,154,155,156,131,132,133,134,135,136,137,138,139,140,141,142,143,144,145,146,147,148,149,150,151,152,153,154,155,156,131,132,133,134,135,136,137,138,139,140,141,142,143,144,145,146,147,148,149,150,151,152,153,154,155,156,131,132,133,134,135,136,137,138,139,140,141,142,143,144,145,146,147,148,149,150,151,152,153,154,155,156,131,132,133,134,135,136,137,138,139,140,141,142,143,144,145,146,147,148,149,150,151,152,153,154,155,156,
157,158,159,160,157,158,159,160,161,162,163,164,165,166,167,168,169,170,171,172,173,174,175,176,177,178,179,180,181,182,157,158,159,160,161,162,163,164,165,166,167,168,169,170,171,172,173,174,175,176,177,178,179,180,181,182,157,158,159,160,161,162,163,164,165,166,167,168,169,170,171,172,173,174,175,176,177,178,179,180,181,182,157,158,159,160,161,162,163,164,165,166,167,168,169,170,171,172,173,174,175,176,177,178,179,180,181,182,157,158,159,160,161,162,163,164,165,166,167,168,169,170,171,172,173,174,175,176,177,178,179,180,181,182,
183,184,185,186,183,184,185,186,187,188,189,190,191,192,193,194,195,196,197,198,199,200,201,202,203,204,205,206,207,208,183,184,185,186,187,188,189,190,191,192,193,194,195,196,197,198,199,200,201,202,203,204,205,206,207,208,183,184,185,186,187,188,189,190,191,192,193,194,195,196,197,198,199,200,201,202,203,204,205,206,207,208,183,184,185,186,187,188,189,190,191,192,193,194,195,196,197,198,199,200,201,202,203,204,205,206,207,208,183,184,185,186,187,188,189,190,191,192,193,194,195,196,197,198,199,200,201,202,203,204,205,206,207,208,
209,210,211,212,209,210,211,212,213,214,215,216,217,218,219,220,221,222,223,224,225,226,227,228,229,230,231,232,233,234,209,210,211,212,213,214,215,216,217,218,219,220,221,222,223,224,225,226,227,228,229,230,231,232,233,234,209,210,211,212,213,214,215,216,217,218,219,220,221,222,223,224,225,226,227,228,229,230,231,232,233,234,209,210,211,212,213,214,215,216,217,218,219,220,221,222,223,224,225,226,227,228,229,230,231,232,233,234,209,210,211,212,213,214,215,216,217,218,219,220,221,222,223,224,225,226,227,228,229,230,231,232,233,234,
235,236,237,238,235,236,237,238,239,240,241,242,243,244,245,246,247,248,249,250,251,252,253,254,255,256,257,258,259,260,235,236,237,238,239,240,241,242,243,244,245,246,247,248,249,250,251,252,253,254,255,256,257,258,259,260,235,236,237,238,239,240,241,242,243,244,245,246,247,248,249,250,251,252,253,254,255,256,257,258,259,260,235,236,237,238,239,240,241,242,243,244,245,246,247,248,249,250,251,252,253,254,255,256,257,258,259,260,235,236,237,238,239,240,241,242,243,244,245,246,247,248,249,250,251,252,253,254,255,256,257,258,259,260,
261,262,263,264,261,262,263,264,265,266,267,268,269,270,271,272,273,274,275,276,277,278,279,280,281,282,283,284,285,286,261,262,263,264,265,266,267,268,269,270,271,272,273,274,275,276,277,278,279,280,281,282,283,284,285,286,261,262,263,264,265,266,267,268,269,270,271,272,273,274,275,276,277,278,279,280,281,282,283,284,285,286,261,262,263,264,265,266,267,268,269,270,271,272,273,274,275,276,277,278,279,280,281,282,283,284,285,286,261,262,263,264,265,266,267,268,269,270,271,272,273,274,275,276,277,278,279,280,281,282,283,284,285,286,
287,288,289,290,287,288,289,290,291,292,293,294,295,296,297,298,299,300,301,302,303,304,305,306,307,308,309,310,311,312,287,288,289,290,291,292,293,294,295,296,297,298,299,300,301,302,303,304,305,306,307,308,309,310,311,312,287,288,289,290,291,292,293,294,295,296,297,298,299,300,301,302,303,304,305,306,307,308,309,310,311,312,287,288,289,290,291,292,293,294,295,296,297,298,299,300,301,302,303,304,305,306,307,308,309,310,311,312,287,288,289,290,291,292,293,294,295,296,297,298,299,300,301,302,303,304,305,306,307,308,309,310,311,312,
313,314,315,316,313,314,315,316,317,318,319,320,321,322,323,324,325,326,327,328,329,330,331,332,333,334,335,336,337,338,313,314,315,316,317,318,319,320,321,322,323,324,325,326,327,328,329,330,331,332,333,334,335,336,337,338,313,314,315,316,317,318,319,320,321,322,323,324,325,326,327,328,329,330,331,332,333,334,335,336,337,338,313,314,315,316,317,318,319,320,321,322,323,324,325,326,327,328,329,330,331,332,333,334,335,336,337,338,313,314,315,316,317,318,319,320,321,322,323,324,325,326,327,328,329,330,331,332,333,334,335,336,337,338,
339,340,341,342,339,340,341,342,343,344,345,346,347,348,349,350,351,352,353,354,355,356,357,358,359,360,361,362,363,364,339,340,341,342,343,344,345,346,347,348,349,350,351,352,353,354,355,356,357,358,359,360,361,362,363,364,339,340,341,342,343,344,345,346,347,348,349,350,351,352,353,354,355,356,357,358,359,360,361,362,363,364,339,340,341,342,343,344,345,346,347,348,349,350,351,352,353,354,355,356,357,358,359,360,361,362,363,364,339,340,341,342,343,344,345,346,347,348,349,350,351,352,353,354,355,356,357,358,359,360,361,362,363,364,
365,366,367,368,365,366,367,368,369,370,371,372,373,374,375,376,377,378,379,380,381,382,383,384,385,386,387,388,389,390,365,366,367,368,369,370,371,372,373,374,375,376,377,378,379,380,381,382,383,384,385,386,387,388,389,390,365,366,367,368,369,370,371,372,373,374,375,376,377,378,379,380,381,382,383,384,385,386,387,388,389,390,365,366,367,368,369,370,371,372,373,374,375,376,377,378,379,380,381,382,383,384,385,386,387,388,389,390,365,366,367,368,369,370,371,372,373,374,375,376,377,378,379,380,381,382,383,384,385,386,387,388,389,390,
391,392,393,394,391,392,393,394,395,396,397,398,399,400,401,402,403,404,405,406,407,408,409,410,411,412,413,414,415,416,391,392,393,394,395,396,397,398,399,400,401,402,403,404,405,406,407,408,409,410,411,412,413,414,415,416,391,392,393,394,395,396,397,398,399,400,401,402,403,404,405,406,407,408,409,410,411,412,413,414,415,416,391,392,393,394,395,396,397,398,399,400,401,402,403,404,405,406,407,408,409,410,411,412,413,414,415,416,391,392,393,394,395,396,397,398,399,400,401,402,403,404,405,406,407,408,409,410,411,412,413,414,415,416
</data>
 </layer>
 <layer id="19" name="Häuser-3" width="134" height="16">
  <data encoding="csv">
0,0,0,0,0,0,0,0,0,0,0,0,0,0,0,0,0,0,0,0,0,0,0,0,0,0,0,0,0,0,0,0,0,0,0,0,0,0,0,0,0,0,0,0,0,0,0,0,0,0,0,0,0,0,0,0,0,0,0,0,0,0,0,0,0,0,0,0,0,0,0,0,0,0,0,0,0,0,0,0,0,0,0,0,0,0,0,0,0,0,0,0,0,0,0,0,0,0,0,0,0,0,0,0,0,0,0,0,0,0,0,0,0,0,0,0,0,0,0,0,0,0,0,0,0,0,0,0,0,0,0,0,0,0,
0,0,0,0,0,0,0,0,0,0,0,0,0,0,0,0,0,0,0,0,0,0,0,0,0,0,0,0,0,0,0,0,0,0,0,0,0,0,0,0,0,0,0,0,0,0,0,0,0,0,0,0,0,0,0,0,0,0,0,0,0,0,0,0,0,0,0,0,0,0,0,0,0,0,0,0,0,0,0,0,0,0,0,0,0,0,0,0,0,0,0,0,0,0,0,0,0,0,0,0,0,0,0,0,0,0,0,0,0,0,0,0,0,0,0,0,0,0,0,0,0,0,0,0,0,0,0,0,0,0,0,0,0,0,
0,0,0,0,0,0,0,0,0,0,0,0,0,0,0,0,0,0,0,0,0,0,0,0,0,0,0,0,0,0,0,0,0,0,0,0,0,0,0,0,0,0,0,0,0,0,0,0,0,0,0,0,0,0,0,0,0,0,0,0,0,0,0,0,0,0,0,0,0,0,0,0,0,0,0,0,0,0,0,0,0,0,0,0,0,0,0,0,0,0,0,0,0,0,0,0,0,0,0,0,0,0,0,0,0,0,0,0,0,0,0,0,0,0,0,0,0,0,0,0,0,0,0,0,0,0,0,0,0,0,0,0,0,0,
0,0,0,0,0,0,0,0,0,0,0,0,0,0,0,0,0,0,0,0,0,0,0,0,0,0,0,0,0,0,0,0,0,0,0,0,0,0,0,0,0,0,0,0,0,0,0,0,0,0,0,0,0,0,0,0,0,0,0,0,0,0,0,0,0,0,0,0,0,0,0,0,0,0,0,0,0,0,0,0,0,0,0,0,0,0,0,0,0,0,0,0,0,0,0,0,0,0,0,0,0,0,0,0,0,0,1706,1707,1708,1709,1710,1711,1712,0,0,0,0,0,0,0,0,0,0,0,0,0,0,0,0,0,0,0,0,0,
0,0,0,0,0,0,0,0,0,0,0,0,0,0,0,0,0,0,0,0,0,0,0,0,0,0,0,0,0,0,0,0,0,0,0,0,0,0,0,0,0,0,0,0,0,0,0,0,0,0,0,0,0,0,0,0,0,0,0,0,0,0,0,0,0,0,0,0,0,0,0,0,0,0,0,0,0,0,0,0,0,0,0,0,0,0,0,0,0,0,0,0,0,0,0,0,0,0,0,0,0,0,0,0,0,0,1741,1742,1743,1744,1745,1746,1747,1748,0,0,0,0,0,0,0,0,0,0,0,0,0,0,0,0,0,0,0,0,
0,0,0,0,0,0,0,0,0,0,0,0,0,0,0,0,0,0,0,0,0,0,0,0,0,0,0,0,0,0,0,0,0,0,0,0,0,0,0,0,0,0,0,0,0,0,0,0,0,0,0,0,0,0,0,0,0,0,0,0,0,0,0,0,0,0,0,0,0,0,0,0,0,0,0,0,0,0,0,0,0,0,0,0,0,0,0,0,0,0,0,0,0,0,0,0,0,0,0,0,0,0,0,0,0,0,1776,1777,1778,1779,1780,1781,1782,1783,0,0,0,0,0,0,0,0,0,0,0,0,0,0,0,0,0,0,0,0,
0,0,0,0,0,0,0,0,0,0,0,0,0,0,0,0,0,0,0,0,0,0,0,0,0,0,1365,1366,1367,1368,1369,0,1365,1366,1367,1368,1369,0,0,0,0,0,0,0,0,0,0,0,0,0,0,0,0,0,0,0,0,0,0,0,0,0,0,0,0,0,0,0,0,0,0,0,0,0,0,0,0,0,0,0,0,0,0,0,0,0,0,0,0,0,0,0,0,0,0,0,0,0,0,0,0,0,0,0,0,0,1811,1812,1813,1814,1815,1816,1817,1818,0,0,0,0,0,0,1364,1365,1366,1367,1368,1369,0,0,0,0,0,0,0,0,
0,0,0,0,0,0,0,0,0,0,0,0,0,0,0,0,0,0,0,0,0,0,0,0,0,0,1400,1401,1402,1403,1404,0,1400,1401,1402,1403,1404,0,0,0,0,0,0,0,0,0,0,0,0,0,0,0,0,0,0,0,0,0,0,0,0,0,0,0,0,0,0,0,0,0,0,0,0,0,0,0,0,0,0,0,0,0,0,0,0,0,0,0,0,0,0,0,0,0,0,1364,1365,1366,1367,1368,1369,1574,1575,1576,1577,1578,1579,1580,1581,1582,1583,1575,1576,1577,1578,1579,1580,1581,1582,1583,1399,1400,1401,1402,1403,1404,0,0,0,0,0,0,0,0,
0,0,0,0,0,0,0,0,0,0,0,0,0,0,0,0,0,0,0,0,0,0,0,0,0,0,1435,1436,1437,1438,1439,0,1435,1436,1437,1438,1439,0,0,0,0,0,0,0,0,0,0,0,0,0,0,0,0,0,0,0,0,0,0,0,0,0,0,0,0,0,0,0,0,0,0,0,0,0,0,0,0,0,0,0,0,0,0,0,0,0,0,0,0,0,0,0,0,0,0,1399,1400,1401,1402,1403,1404,1609,1610,1611,1612,1613,1614,1615,1616,1617,1618,1610,1611,1612,1613,1614,1615,1616,1617,1618,1434,1435,1436,1437,1438,1439,0,0,0,0,0,0,0,0,
0,0,0,0,0,0,0,0,0,0,0,0,0,0,0,0,0,0,0,0,0,0,0,0,0,0,1470,1471,1472,1473,1474,0,1470,1471,1472,1473,1474,0,0,0,0,0,0,0,0,0,0,0,0,0,0,0,0,0,0,0,0,0,0,0,0,0,0,0,0,0,0,0,0,0,0,0,0,0,0,0,0,0,0,0,0,0,0,0,0,0,0,0,0,0,0,0,0,0,0,1434,1435,1436,1437,1438,1439,1644,1645,1646,1647,1648,1649,1650,1651,1652,1653,1645,1646,1647,1648,1649,1650,1651,1652,1653,1469,1470,1471,1472,1473,1474,0,0,0,0,0,0,0,0,
0,0,0,0,0,0,0,0,0,0,0,0,0,0,0,0,0,0,0,0,0,0,0,0,0,0,1505,1506,1507,1508,1509,0,1505,1506,1507,1508,1509,0,0,0,0,0,0,0,0,0,0,0,0,0,0,0,0,0,0,0,0,0,0,0,0,0,0,0,0,0,0,0,0,0,0,0,0,0,0,0,0,0,0,0,0,0,0,0,0,0,0,0,0,0,0,0,0,0,0,1469,1470,1471,1472,1473,1474,1679,1680,1681,1682,1683,1684,1685,1686,1687,1688,1680,1681,1682,1683,1684,1685,1686,1687,1688,1504,1505,1506,1507,1508,1509,0,0,0,0,0,0,0,0,
0,0,0,0,0,0,0,0,0,0,0,0,0,0,0,0,0,0,0,0,0,0,0,0,0,0,0,0,0,0,0,0,0,0,0,0,0,0,0,0,0,0,0,0,0,0,0,0,0,0,0,0,0,0,0,0,0,0,0,0,0,0,0,0,0,0,0,0,0,0,0,0,0,0,0,0,0,0,0,0,0,0,0,0,0,0,0,0,0,0,0,0,0,0,0,1504,1505,1506,1507,1508,1509,1714,1715,1716,1717,1718,1719,1720,1721,1722,1723,1715,1716,1717,1718,1719,1720,1721,1722,1723,0,0,0,0,0,0,0,0,0,0,0,0,0,0,
0,0,0,0,0,0,0,0,0,0,0,0,0,0,0,0,0,0,0,0,0,0,0,0,0,0,0,0,0,0,0,0,0,0,0,0,0,0,0,0,0,0,0,0,0,0,0,0,0,0,0,0,0,0,0,0,0,0,0,0,0,0,0,0,0,0,0,0,0,0,0,0,0,0,0,0,0,0,0,0,0,0,0,0,0,0,0,0,0,0,0,0,0,0,0,1539,1540,1541,1542,1543,1544,1749,1750,1751,1752,1753,1754,1755,1756,1757,1758,1750,1751,1752,1753,1754,1755,1756,1757,1758,0,0,0,0,0,0,0,0,0,0,0,0,0,0,
0,0,0,0,0,0,0,0,0,0,0,0,0,0,0,0,0,0,0,0,0,0,0,0,0,0,0,0,0,0,0,0,0,0,0,0,0,0,0,0,0,0,0,0,0,0,0,0,0,0,0,0,0,0,0,0,0,0,0,0,0,0,0,0,0,0,0,0,0,0,0,0,0,0,0,0,0,0,0,0,0,0,0,0,0,0,0,0,0,0,0,0,0,0,0,0,0,0,0,0,0,0,0,0,0,0,2056,2057,2058,2059,2060,2061,2062,2063,0,0,0,0,0,0,0,0,0,0,0,0,0,0,0,0,0,0,0,0,
0,0,0,0,0,0,0,0,0,0,0,0,0,0,0,0,0,0,0,0,0,0,0,0,0,0,0,0,0,0,0,0,0,0,0,0,0,0,0,0,0,0,0,0,0,0,0,0,0,0,0,0,0,0,0,0,0,0,0,0,0,0,0,0,0,0,0,0,0,0,0,0,0,0,0,0,0,0,0,0,0,0,0,0,0,0,0,0,0,0,0,0,0,0,0,0,0,0,0,0,0,0,0,0,0,0,0,0,0,0,0,0,0,0,0,0,0,0,0,0,0,0,0,0,0,0,0,0,0,0,0,0,0,0,
0,0,0,0,0,0,0,0,0,0,0,0,0,0,0,0,0,0,0,0,0,0,0,0,0,0,0,0,0,0,0,0,0,0,0,0,0,0,0,0,0,0,0,0,0,0,0,0,0,0,0,0,0,0,0,0,0,0,0,0,0,0,0,0,0,0,0,0,0,0,0,0,0,0,0,0,0,0,0,0,0,0,0,0,0,0,0,0,0,0,0,0,0,0,0,0,0,0,0,0,0,0,0,0,0,0,0,0,0,0,0,0,0,0,0,0,0,0,0,0,0,0,0,0,0,0,0,0,0,0,0,0,0,0
</data>
 </layer>
 <layer id="18" name="Häuser-2" width="134" height="16">
  <data encoding="csv">
0,0,0,0,0,0,0,0,0,0,0,0,0,0,0,0,0,0,0,0,0,0,0,0,0,0,0,0,0,0,0,0,0,0,0,0,0,0,0,0,0,0,0,0,0,0,0,0,0,0,0,0,0,0,0,0,0,0,0,0,0,0,0,0,0,0,0,0,0,0,0,0,0,0,0,0,0,0,0,0,0,0,0,0,0,0,0,0,0,0,0,0,0,0,0,0,0,0,0,0,0,0,0,0,0,0,0,0,0,0,0,0,0,0,0,0,0,0,0,0,0,0,0,0,0,0,0,0,0,0,0,0,0,0,
0,0,0,0,0,0,0,0,0,0,0,0,0,0,0,0,0,0,0,0,0,0,0,0,0,0,0,0,0,0,0,0,0,0,0,0,0,0,0,0,0,0,0,0,0,0,0,0,0,0,0,0,0,0,0,0,0,0,0,0,0,0,0,0,0,0,0,0,0,0,0,0,0,0,0,0,0,0,0,0,0,0,0,0,0,0,0,0,0,0,0,0,0,0,0,0,0,0,0,0,0,0,0,0,0,0,0,0,0,0,0,0,0,0,0,0,0,0,0,0,0,0,0,0,0,0,0,0,0,0,0,0,0,0,
0,0,1796,1797,1798,1799,1800,1801,1802,1803,1804,1805,1806,1807,0,0,1374,1375,1376,1377,1378,1379,1380,1381,0,0,0,0,0,0,0,0,0,0,0,0,0,0,0,0,0,0,0,0,0,0,0,0,0,0,0,0,0,0,0,0,0,0,0,0,0,0,0,0,0,0,0,0,0,0,0,0,0,0,0,0,0,0,0,0,0,0,0,0,0,0,0,0,0,0,0,0,0,0,0,0,0,0,0,0,0,0,0,0,0,0,0,0,0,0,0,0,0,0,0,0,0,0,0,0,0,0,0,0,0,0,0,0,0,0,0,0,0,0,
0,0,1831,1832,1833,1834,1835,1836,1837,1838,1839,1840,1841,1842,0,0,1409,1410,1411,1412,1413,1414,1415,1416,0,0,0,0,0,0,0,0,0,0,0,0,0,0,0,0,0,0,0,0,0,0,0,0,0,0,0,0,0,0,0,0,0,0,0,0,0,0,0,0,0,0,0,0,0,0,0,0,0,0,0,0,0,0,0,0,0,0,0,0,0,0,0,0,0,0,0,0,0,0,0,0,0,0,0,0,0,0,0,0,0,0,1706,1707,1708,1709,1706,1707,1708,1709,1710,1711,1712,0,0,0,0,0,0,0,0,0,0,0,0,0,0,0,0,0,
0,0,1866,1867,1868,1869,1870,1871,1872,1873,1874,1875,1876,1877,0,0,1444,1445,1446,1447,1448,1449,1450,1451,0,0,0,0,0,0,0,0,0,0,0,0,0,0,0,0,0,0,0,0,0,0,0,0,0,0,0,0,0,0,0,0,1357,1358,1359,1360,1361,1357,1358,1357,1358,1359,1360,1361,1362,0,0,0,0,0,0,0,0,0,0,0,0,0,0,0,0,0,0,0,0,0,0,0,0,0,0,0,0,0,0,0,0,0,0,0,0,0,1741,1742,1743,1744,1741,1742,1743,1744,1745,1746,1747,1748,0,0,0,0,0,0,0,0,0,0,0,0,0,0,0,0,
0,0,1901,1902,1903,1904,1905,1906,1907,1908,1909,1910,1911,1912,0,0,1479,1480,1481,1482,1483,1484,1485,1486,0,0,0,0,0,0,0,0,0,0,0,0,0,0,0,0,0,0,0,0,0,0,0,0,0,0,0,0,0,0,0,0,1392,1393,1394,1395,1396,1392,1393,1392,1393,1394,1395,1396,1397,0,0,0,0,0,0,0,0,0,0,0,0,0,0,0,0,0,0,0,0,0,0,0,0,0,0,0,0,0,0,0,0,0,0,0,0,0,1776,1777,1778,1779,1776,1777,1778,1779,1780,1781,1782,1783,0,0,0,0,0,0,0,0,0,0,0,0,0,0,0,0,
0,0,1936,1937,1938,1939,1940,1941,1942,1943,1944,1945,1946,1947,0,0,1514,1515,1516,1517,1518,1519,1520,1521,0,0,0,1538,1539,1540,1541,1542,1543,1544,1545,1546,1547,1548,0,0,0,0,0,0,0,0,0,0,0,0,0,0,0,0,0,0,1427,1428,1429,1430,1431,1427,1428,1427,1428,1429,1430,1431,1432,0,0,0,0,0,0,0,0,0,0,0,0,0,0,0,0,0,0,0,0,0,0,0,0,0,0,0,0,0,0,0,0,0,0,0,0,0,1811,1812,1813,1814,1811,1812,1813,1814,1815,1816,1817,1818,0,0,0,0,0,0,0,0,0,0,0,0,0,0,0,0,
0,0,1971,1972,1973,1974,1975,1976,1977,1978,1979,1980,1981,1982,0,0,1549,1550,1551,1552,1553,1554,1555,1556,0,0,0,1573,1574,1575,1576,1577,1578,1579,1580,1581,1582,1365,1366,1367,1368,1369,0,0,0,0,0,0,0,0,0,0,0,0,0,0,1462,1463,1464,1465,1466,1462,1463,1462,1463,1464,1465,1466,1467,0,0,0,0,0,0,0,0,0,0,0,0,0,0,0,0,0,0,0,0,0,0,0,0,0,0,0,0,0,0,0,0,0,0,0,0,0,1846,1847,1848,1849,1846,1847,1848,1849,1850,1851,1852,1364,1365,1366,1367,1368,1369,0,0,0,0,0,0,0,0,0,0,0,
0,0,2006,2007,2008,2009,2010,2011,2012,2013,2014,2015,2016,2017,0,0,1584,1585,1586,1587,1588,1589,1590,1591,0,0,0,1608,1609,1610,1611,1612,1613,1614,1615,1616,1617,1400,1401,1402,1403,1404,0,0,0,0,0,0,0,0,0,0,0,0,0,0,1497,1498,1499,1500,1501,1497,1498,1497,1498,1499,1500,1501,1502,0,0,0,0,0,0,0,0,0,0,0,0,0,0,0,0,0,0,0,0,0,0,0,0,1364,1365,1366,1367,1368,1369,0,0,0,0,0,0,0,1881,1882,1883,1884,1881,1882,1883,1884,1885,1886,1887,1399,1400,1401,1402,1403,1404,0,0,0,0,0,0,0,0,0,0,0,
0,0,2041,2042,2043,2044,2045,2046,2047,2048,2049,2050,2051,2052,0,0,1619,1620,1621,1622,1623,1624,1625,1626,0,0,0,1643,1644,1645,1646,1647,1648,1649,1650,1651,1652,1435,1436,1437,1438,1439,0,0,0,0,0,0,0,0,0,0,0,0,0,0,1532,1533,1534,1535,1536,1532,1533,1532,1533,1534,1535,1536,1537,0,0,0,0,0,0,0,0,0,0,0,0,0,0,0,0,0,0,0,0,0,0,0,0,1399,1400,1401,1402,1403,1404,0,0,0,0,0,0,0,1916,1917,1918,1919,1916,1917,1918,1919,1920,1921,1922,1434,1435,1436,1437,1438,1439,0,0,0,0,0,0,0,0,0,0,0,
0,0,2076,2077,2078,2079,2080,2081,2082,2083,2084,2085,2086,2087,0,0,1654,1655,1656,1657,1658,1659,1660,1661,0,0,0,1678,1679,1680,1681,1682,1683,1684,1685,1686,1687,1470,1471,1472,1473,1474,0,0,0,0,0,0,0,0,0,0,0,0,0,0,1567,1568,1569,1570,1571,1567,1568,1567,1568,1569,1570,1571,1572,0,0,0,0,0,0,0,0,0,0,0,0,0,0,0,0,0,0,0,0,0,0,0,0,1434,1435,1436,1437,1438,1439,0,0,0,0,0,0,0,1951,1952,1953,1954,1951,1952,1953,1954,1955,1956,1957,1469,1470,1471,1472,1473,1474,0,0,0,0,0,0,0,0,0,0,0,
0,0,0,0,0,0,0,0,0,0,0,0,0,0,0,0,1689,1690,1691,1692,1693,1694,1695,1696,0,0,0,1713,1714,1715,1716,1717,1718,1719,1720,1721,1722,1505,1506,1507,1508,1509,0,0,0,0,0,0,0,0,0,0,0,0,0,0,1602,1603,1604,1605,1606,1602,1603,1602,1603,1604,1605,1606,1607,0,0,0,0,0,0,0,0,0,0,0,0,0,0,0,0,0,0,0,0,0,0,0,0,1469,1470,1471,1472,1473,1474,0,0,0,0,0,0,0,1986,1987,1988,1989,1986,1987,1988,1989,1990,1991,1992,1504,1505,1506,1507,1508,1509,0,0,0,0,0,0,0,0,0,0,0,
0,0,0,0,0,0,0,0,0,0,0,0,0,0,0,0,1724,1725,1726,1727,1728,1729,1730,1731,0,0,0,1748,1749,1750,1751,1752,1753,1754,1755,1756,1757,1758,0,0,0,0,0,0,0,0,0,0,0,0,0,0,0,0,0,0,1637,1638,1639,1640,1641,1637,1638,1637,1638,1639,1640,1641,1642,0,0,0,0,0,0,0,0,0,0,0,0,0,0,0,0,0,0,0,0,0,0,0,0,1504,1505,1506,1507,1508,1509,0,0,0,0,0,0,0,2021,2022,2023,2024,2021,2022,2023,2024,2025,2026,2027,2028,0,0,0,0,0,0,0,0,0,0,0,0,0,0,0,0,
0,0,0,0,0,0,0,0,0,0,0,0,0,0,0,0,1759,1760,1761,1762,1763,1764,1765,1766,0,0,0,0,0,0,0,0,0,0,0,0,0,0,0,0,0,0,0,0,0,0,0,0,0,0,0,0,0,0,0,0,0,0,0,0,0,0,0,0,0,0,0,0,0,0,0,0,0,0,0,0,0,0,0,0,0,0,0,0,0,0,0,0,0,0,0,0,0,1539,1540,1541,1542,1543,1544,0,0,0,0,0,0,0,2056,2057,2058,2059,2056,2057,2058,2059,2060,2061,2062,2063,0,0,0,0,0,0,0,0,0,0,0,0,0,0,0,0,
0,0,0,0,0,0,0,0,0,0,0,0,0,0,0,0,0,0,0,0,0,0,0,0,0,0,0,0,0,0,0,0,0,0,0,0,0,0,0,0,0,0,0,0,0,0,0,0,0,0,0,0,0,0,0,0,0,0,0,0,0,0,0,0,0,0,0,0,0,0,0,0,0,0,0,0,0,0,0,0,0,0,0,0,0,0,0,0,0,0,0,0,0,0,0,0,0,0,0,0,0,0,0,0,0,0,0,0,0,0,0,0,0,0,0,0,0,0,0,0,0,0,0,0,0,0,0,0,0,0,0,0,0,0,
0,0,0,0,0,0,0,0,0,0,0,0,0,0,0,0,0,0,0,0,0,0,0,0,0,0,0,0,0,0,0,0,0,0,0,0,0,0,0,0,0,0,0,0,0,0,0,0,0,0,0,0,0,0,0,0,0,0,0,0,0,0,0,0,0,0,0,0,0,0,0,0,0,0,0,0,0,0,0,0,0,0,0,0,0,0,0,0,0,0,0,0,0,0,0,0,0,0,0,0,0,0,0,0,0,0,0,0,0,0,0,0,0,0,0,0,0,0,0,0,0,0,0,0,0,0,0,0,0,0,0,0,0,0
</data>
 </layer>
 <layer id="17" name="Häuser-1" width="134" height="16">
  <data encoding="csv">
0,0,0,0,0,0,0,0,0,0,0,0,0,0,0,0,0,0,0,0,0,0,0,0,0,0,0,0,0,0,0,0,0,0,0,0,0,0,0,0,0,0,0,0,0,0,0,0,0,0,0,0,0,0,0,0,0,0,0,0,0,0,0,0,0,0,0,0,0,0,0,0,0,0,0,0,0,0,0,0,0,0,0,0,0,0,0,0,0,0,0,0,0,0,0,0,0,0,0,0,0,0,0,0,0,0,0,0,0,0,0,0,0,0,0,0,0,0,0,0,0,0,0,0,0,0,0,0,0,0,0,0,0,0,
0,0,0,0,0,0,0,0,0,0,0,0,0,0,0,0,0,0,0,0,0,0,0,0,0,0,0,0,0,0,0,0,0,0,0,0,0,0,0,0,0,0,0,0,0,0,0,0,0,0,0,0,0,0,0,0,0,0,0,0,0,0,0,0,0,0,0,0,0,0,0,0,0,0,0,0,0,0,0,0,0,0,0,0,0,0,0,0,0,0,0,0,0,0,0,0,0,0,0,0,0,0,0,0,0,0,0,0,0,0,0,0,0,0,0,0,0,0,0,0,0,0,0,0,0,0,0,0,0,0,0,0,0,0,
1671,1672,1673,1674,1675,1676,0,0,0,0,0,0,0,0,0,0,0,0,0,0,0,1382,1383,1384,1385,1386,1387,0,0,0,0,0,0,0,0,0,0,0,0,0,0,0,0,0,0,0,0,0,0,0,0,0,0,0,0,0,0,0,0,0,0,0,0,0,0,0,0,0,0,0,0,0,0,0,0,0,0,0,0,0,0,0,0,0,0,0,0,0,0,0,0,0,0,0,0,0,0,0,0,0,0,0,0,0,0,0,0,0,0,0,0,0,0,0,0,0,0,0,0,0,0,0,0,0,0,0,0,0,0,0,0,0,0,0,
1706,1707,1708,1709,1710,1711,0,0,0,0,0,0,0,0,0,0,0,0,0,0,0,1417,1418,1419,1420,1421,1422,0,0,0,0,0,0,0,0,0,0,0,0,0,0,0,0,0,0,0,0,0,0,0,0,0,0,0,0,0,0,0,0,0,0,0,0,0,0,0,0,0,0,0,0,0,0,0,0,0,0,0,0,0,0,0,0,0,0,0,0,0,0,0,0,0,0,0,0,0,0,0,0,0,0,0,0,0,0,0,0,0,1706,1707,1708,1709,1710,1711,1712,0,0,0,0,0,0,0,0,0,0,0,0,0,0,0,0,0,0,0,
1741,1742,1743,1744,1745,1746,1747,0,0,0,0,0,0,0,0,0,0,0,0,0,0,1452,1453,1454,1455,1456,1457,0,0,0,0,0,0,0,0,0,0,0,0,0,0,1796,1797,1798,1799,1800,1801,1802,1803,1804,1805,1806,1807,0,1820,1419,1420,0,0,0,0,0,0,0,0,0,0,0,0,0,0,0,0,0,0,0,0,0,0,0,0,0,0,0,0,1357,1358,1359,1360,1361,1362,0,0,0,0,0,0,0,0,0,0,0,0,0,0,0,0,0,1741,1742,1743,1744,1745,1746,1747,1748,0,0,0,0,0,0,0,0,0,0,0,0,0,0,0,0,0,0,
1776,1777,1778,1779,1780,1781,1782,1783,0,0,0,0,0,0,0,0,0,0,0,0,0,1487,1488,1489,1490,1491,1492,0,0,0,0,0,0,0,0,0,0,0,0,0,0,1831,1832,1833,1834,1835,1836,1837,1838,1839,1840,1841,1842,1452,1453,1454,1455,1456,1457,0,0,0,0,0,0,0,0,0,0,0,0,0,0,0,0,0,0,0,0,0,0,0,0,0,0,1392,1393,1394,1395,1396,1397,0,0,0,0,0,0,0,0,0,0,0,0,0,0,0,0,0,1776,1777,1778,1779,1780,1781,1782,1783,0,0,0,0,0,0,0,0,0,0,0,0,0,0,0,0,0,0,
1811,1812,1813,1814,1815,1816,1817,1818,1539,1540,1541,1542,1543,1544,1545,1546,1547,1548,0,0,0,1522,1523,1524,1525,1526,1527,0,0,0,0,0,0,0,0,0,0,0,0,0,0,1866,1867,1868,1869,1870,1871,1872,1873,1874,1875,1876,1877,1487,1488,1489,1490,1491,1492,0,0,0,0,0,0,0,0,0,0,0,0,0,1539,1540,1541,1542,1543,1544,1545,1546,1547,1548,0,0,0,1427,1428,1429,1430,1431,1432,0,0,0,0,0,0,0,0,0,0,0,0,0,0,0,0,0,1811,1812,1813,1814,1815,1816,1817,1818,0,0,0,0,0,0,0,0,0,0,0,0,0,0,0,0,0,0,
1846,1847,1848,1849,1850,1851,1852,1853,1574,1575,1576,1577,1578,1579,1580,1581,1582,1583,0,0,0,1557,1558,1559,1560,1561,1562,0,0,0,0,0,0,0,0,0,0,0,0,0,0,1901,1902,1903,1904,1905,1906,1907,1908,1909,1910,1911,1912,1522,1523,1524,1525,1526,1527,0,0,0,0,0,0,0,0,0,0,0,0,0,1574,1575,1576,1577,1578,1579,1580,1581,1582,1583,0,0,0,1462,1463,1464,1465,1466,1467,0,0,0,0,0,0,0,0,0,0,0,0,0,0,0,0,0,1846,1847,1848,1849,1850,1851,1852,1853,0,0,0,0,0,0,0,0,0,0,0,0,0,0,0,0,0,0,
1881,1882,1883,1884,1885,1886,1887,1888,1609,1610,1611,1612,1613,1614,1615,1616,1617,1618,0,0,0,1592,1593,1594,1595,1596,1597,1365,1366,1367,1368,1369,0,0,0,1365,1366,1367,1368,1369,0,1936,1937,1938,1939,1940,1941,1942,1943,1944,1945,1946,1947,1557,1558,1559,1560,1561,1562,0,0,0,0,0,0,0,0,0,0,0,0,0,1609,1610,1611,1612,1613,1614,1615,1616,1617,1618,0,0,0,1497,1498,1499,1500,1501,1502,0,0,0,0,0,0,0,0,0,0,0,0,0,0,0,0,0,1881,1882,1883,1884,1885,1886,1887,1888,0,0,0,0,1364,1365,1366,1367,1368,1369,0,0,0,0,0,0,0,0,
1916,1917,1918,1919,1920,1921,1922,1923,1644,1645,1646,1647,1648,1649,1650,1651,1652,1653,0,0,0,1627,1628,1629,1630,1631,1632,1400,1401,1402,1403,1404,0,0,0,1400,1401,1402,1403,1404,0,1971,1972,1973,1974,1975,1976,1977,1978,1979,1980,1981,1982,1592,1593,1594,1595,1596,1597,0,0,0,0,0,0,0,0,0,0,0,0,0,1644,1645,1646,1647,1648,1649,1650,1651,1652,1653,0,0,0,1532,1533,1534,1535,1536,1537,0,0,0,0,0,0,0,0,0,0,0,0,0,0,0,0,0,1916,1917,1918,1919,1920,1921,1922,1923,0,0,0,0,1399,1400,1401,1402,1403,1404,0,0,0,0,0,0,0,0,
1951,1952,1953,1954,1955,1956,1957,1958,1679,1680,1681,1682,1683,1684,1685,1686,1687,1688,0,0,0,1662,1663,1664,1665,1666,1667,1435,1436,1437,1438,1439,0,0,0,1435,1436,1437,1438,1439,0,2006,2007,2008,2009,2010,2011,2012,2013,2014,2015,2016,2017,1627,1628,1629,1630,1631,1632,0,0,0,0,0,0,0,0,0,0,0,0,1678,1679,1680,1681,1682,1683,1684,1685,1686,1687,1688,0,0,0,1567,1568,1569,1570,1571,1572,0,0,0,0,0,0,0,0,0,0,0,0,0,0,0,0,0,1951,1952,1953,1954,1955,1956,1957,1958,0,0,0,0,1434,1435,1436,1437,1438,1439,0,0,0,0,0,0,0,0,
1986,1987,1988,1989,1990,1991,1992,1993,1714,1715,1716,1717,1718,1719,1720,1721,1722,1723,0,0,0,1697,1698,1699,1700,1701,1702,1470,1471,1472,1473,1474,0,0,0,1470,1471,1472,1473,1474,0,2041,2042,2043,2044,2045,2046,2047,2048,2049,2050,2051,2052,1662,1663,1664,1665,1666,1667,0,0,0,0,0,0,0,0,0,0,0,0,1713,1714,1715,1716,1717,1718,1719,1720,1721,1722,1723,0,0,0,1602,1603,1604,1605,1606,1607,0,0,0,0,0,0,0,0,0,0,0,0,0,0,0,0,0,1986,1987,1988,1989,1990,1991,1992,1993,0,0,0,0,1469,1470,1471,1472,1473,1474,0,0,0,0,0,0,0,0,
2021,2022,2023,2024,2025,2026,2027,2028,1749,1750,1751,1752,1753,1754,1755,1756,1757,1758,0,0,0,1732,1733,1734,1735,1736,1737,1505,1506,1507,1508,1509,0,0,0,1505,1506,1507,1508,1509,0,2076,2077,2078,2079,2080,2081,2082,2083,2084,2085,2086,2087,1697,1698,1699,1700,1701,1702,0,0,0,0,0,0,0,0,0,0,0,0,0,1749,1750,1751,1752,1753,1754,1755,1756,1757,1758,0,0,0,1637,1638,1639,1640,1641,1642,0,0,0,0,0,0,0,0,0,0,0,0,0,0,0,0,0,2021,2022,2023,2024,2025,2026,2027,2028,0,0,0,0,1504,1505,1506,1507,1508,1509,0,0,0,0,0,0,0,0,
2056,2057,2058,2059,2060,2061,2062,2063,0,0,0,0,0,0,0,0,0,0,0,0,0,1320,1321,0,0,0,0,0,0,0,0,0,0,0,0,0,0,0,0,0,0,0,0,0,0,0,0,0,0,0,0,0,0,1732,1733,1734,1735,1736,1737,0,0,0,0,0,0,0,0,0,0,0,0,0,0,0,0,0,0,0,0,0,0,0,0,0,0,0,0,0,0,0,0,0,0,0,0,0,0,0,0,0,0,0,0,0,0,0,0,0,2056,2057,2058,2059,2060,2061,2062,2063,0,0,0,0,0,0,0,0,0,0,0,0,0,0,0,0,0,0,
0,0,0,0,0,0,0,0,0,0,0,0,0,0,0,0,0,0,0,0,0,0,0,0,0,0,0,0,0,0,0,0,0,0,0,0,0,0,0,0,0,0,0,0,0,0,0,0,0,0,0,0,0,0,0,0,0,0,0,0,0,0,0,0,0,0,0,0,0,0,0,0,0,0,0,0,0,0,0,0,0,0,0,0,0,0,0,0,0,0,0,0,0,0,0,0,0,0,0,0,0,0,0,0,0,0,0,0,0,0,0,0,0,0,0,0,0,0,0,0,0,0,0,0,0,0,0,0,0,0,0,0,0,0,
0,0,0,0,0,0,0,0,0,0,0,0,0,0,0,0,0,0,0,0,0,0,0,0,0,0,0,0,0,0,0,0,0,0,0,0,0,0,0,0,0,0,0,0,0,0,0,0,0,0,0,0,0,0,0,0,0,0,0,0,0,0,0,0,0,0,0,0,0,0,0,0,0,0,0,0,0,0,0,0,0,0,0,0,0,0,0,0,0,0,0,0,0,0,0,0,0,0,0,0,0,0,0,0,0,0,0,0,0,0,0,0,0,0,0,0,0,0,0,0,0,0,0,0,0,0,0,0,0,0,0,0,0,0
</data>
 </layer>
 <layer id="4" name="Boden" width="134" height="16">
  <data encoding="csv">
443,444,445,446,447,448,449,450,451,452,453,454,455,456,457,458,459,460,461,462,463,464,465,466,467,468,443,444,445,446,417,418,419,420,421,422,423,424,425,426,427,428,429,430,431,432,433,434,435,436,437,438,439,440,441,442,417,418,419,420,417,418,419,420,421,422,423,424,425,426,427,428,429,430,431,432,433,434,435,436,437,438,439,440,441,442,417,418,419,420,421,422,423,424,425,426,427,428,429,430,417,418,419,420,421,422,423,424,425,426,427,428,429,430,431,432,433,434,435,436,437,438,439,440,441,442,417,418,419,420,421,422,423,424,
469,470,471,472,473,474,475,476,477,478,479,480,481,482,483,484,485,486,487,488,489,490,491,492,493,494,469,470,471,472,443,444,445,446,447,448,449,450,451,452,453,454,455,456,457,458,459,460,461,462,463,464,465,466,467,468,443,444,445,446,443,444,445,446,447,448,449,450,451,452,453,454,455,456,457,458,459,460,461,462,463,464,465,466,467,468,443,444,445,446,447,448,449,450,451,452,453,454,455,456,443,444,445,446,447,448,449,450,451,452,453,454,455,456,457,458,459,460,461,462,463,464,465,466,467,468,443,444,445,446,447,448,449,450,
495,496,497,498,499,500,501,502,503,504,505,506,507,508,509,510,511,512,513,514,515,516,517,518,519,520,495,496,497,498,469,470,471,472,473,474,475,476,477,478,479,480,481,482,483,484,485,486,487,488,489,490,491,492,493,494,469,470,471,472,469,470,471,472,473,474,475,476,477,478,479,480,481,482,483,484,485,486,487,488,489,490,491,492,493,494,469,470,471,472,473,474,475,476,477,478,479,480,481,482,469,470,471,472,473,474,475,476,477,478,479,480,481,482,483,484,485,486,487,488,489,490,491,492,493,494,469,470,471,472,473,474,475,476,
521,522,523,524,525,526,527,528,529,530,531,532,533,534,535,536,537,538,539,540,541,542,543,544,545,546,521,522,523,524,495,496,497,498,499,500,501,502,503,504,505,506,507,508,509,510,511,512,513,514,515,516,517,518,519,520,495,496,497,498,495,496,497,498,499,500,501,502,503,504,505,506,507,508,509,510,511,512,513,514,515,516,517,518,519,520,495,496,497,498,499,500,501,502,503,504,505,506,507,508,495,496,497,498,499,500,501,502,503,504,505,506,507,508,509,510,511,512,513,514,515,516,517,518,519,520,495,496,497,498,499,500,501,502,
547,548,549,550,551,552,553,554,555,556,557,558,559,560,561,562,563,564,565,566,567,568,569,570,571,572,547,548,549,550,521,522,523,524,525,526,527,528,529,530,531,532,533,534,535,536,537,538,539,540,541,542,543,544,545,546,521,522,523,524,521,522,523,524,525,526,527,528,529,530,531,532,533,534,535,536,537,538,539,540,541,542,543,544,545,546,521,522,523,524,525,526,527,528,529,530,531,532,533,534,521,522,523,524,525,526,527,528,529,530,531,532,533,534,535,536,537,538,539,540,541,542,543,544,545,546,521,522,523,524,525,526,527,528,
573,574,575,576,577,578,579,580,581,582,583,584,585,586,587,588,589,590,591,592,593,594,595,596,597,598,573,574,575,576,547,548,549,550,551,552,553,554,555,556,557,558,559,560,561,562,563,564,565,566,567,568,569,570,571,572,547,548,549,550,547,548,549,550,551,552,553,554,555,556,557,558,559,560,561,562,563,564,565,566,567,568,569,570,571,572,547,548,549,550,551,552,553,554,555,556,557,558,559,560,547,548,549,550,551,552,553,554,555,556,557,558,559,560,561,562,563,564,565,566,567,568,569,570,571,572,547,548,549,550,551,552,553,554,
599,600,601,602,603,604,605,606,607,608,609,610,611,612,613,614,615,616,617,618,619,620,621,622,623,624,599,600,601,602,573,574,575,576,577,578,579,580,581,582,583,584,585,586,587,588,589,590,591,592,593,594,595,596,597,598,573,574,575,576,573,574,575,576,577,578,579,580,581,582,583,584,585,586,587,588,589,590,591,592,593,594,595,596,597,598,573,574,575,576,577,578,579,580,581,582,583,584,585,586,573,574,575,576,577,578,579,580,581,582,583,584,585,586,587,588,589,590,591,592,593,594,595,596,597,598,573,574,575,576,577,578,579,580,
625,626,627,628,629,630,631,632,633,634,635,636,637,638,639,640,641,642,643,644,645,646,647,648,649,650,625,626,627,628,599,600,601,602,603,604,605,606,607,608,609,610,611,612,613,614,615,616,617,618,619,620,621,622,623,624,599,600,601,602,599,600,601,602,603,604,605,606,607,608,609,610,611,612,613,614,615,616,617,618,619,620,621,622,623,624,599,600,601,602,603,604,605,606,607,608,609,610,611,612,599,600,601,602,603,604,605,606,607,608,609,610,611,612,613,614,615,616,617,618,619,620,621,622,623,624,599,600,601,602,603,604,605,606,
651,652,653,654,655,656,657,658,659,660,661,662,663,664,665,666,667,668,669,670,671,672,673,674,675,676,651,652,653,654,625,626,627,628,629,630,631,632,633,634,635,636,637,638,639,640,641,642,643,644,645,646,647,648,649,650,625,626,627,628,625,626,627,628,629,630,631,632,633,634,635,636,637,638,639,640,641,642,643,644,645,646,647,648,649,650,625,626,627,628,629,630,631,632,633,634,635,636,637,638,625,626,627,628,629,630,631,632,633,634,635,636,637,638,639,640,641,642,643,644,645,646,647,648,649,650,625,626,627,628,629,630,631,632,
677,678,679,680,681,682,683,684,685,686,687,688,689,690,691,692,693,694,695,696,697,698,699,700,701,702,677,678,679,680,651,652,653,654,655,656,657,658,659,660,661,662,663,664,665,666,667,668,669,670,671,672,673,674,675,676,651,652,653,654,651,652,653,654,655,656,657,658,659,660,661,662,663,664,665,666,667,668,669,670,671,672,673,674,675,676,651,652,653,654,655,656,657,658,659,660,661,662,663,664,651,652,653,654,655,656,657,658,659,660,661,662,663,664,665,666,667,668,669,670,671,672,673,674,675,676,651,652,653,654,655,656,657,658,
703,704,705,706,707,708,709,710,711,712,713,714,715,716,717,718,719,720,721,722,723,724,725,726,727,728,703,704,705,706,677,678,679,680,681,682,683,684,685,686,687,688,689,690,691,692,693,694,695,696,697,698,699,700,701,702,677,678,679,680,677,678,679,680,681,682,683,684,685,686,687,688,689,690,691,692,693,694,695,696,697,698,699,700,701,702,677,678,679,680,681,682,683,684,685,686,687,688,689,690,677,678,679,680,681,682,683,684,685,686,687,688,689,690,691,692,693,694,695,696,697,698,699,700,701,702,677,678,679,680,681,682,683,684,
0,0,0,0,0,0,0,0,0,0,0,0,0,0,0,0,0,0,0,0,0,0,0,0,0,0,0,0,0,0,703,704,705,706,707,708,709,710,711,712,713,714,715,716,717,718,719,720,721,722,723,724,725,726,727,728,703,704,705,706,703,704,705,706,707,708,709,710,711,712,713,714,715,716,717,718,719,720,721,722,723,724,725,726,727,728,703,704,705,706,707,708,709,710,711,712,713,714,715,716,703,704,705,706,707,708,709,710,711,712,713,714,715,716,717,718,719,720,721,722,723,724,725,726,727,728,703,704,705,706,707,708,709,710,
729,730,731,732,733,734,735,736,737,738,739,740,741,742,743,744,745,746,747,748,749,750,751,752,753,754,729,730,731,732,729,730,731,732,733,734,735,736,737,738,739,740,741,742,743,744,745,746,747,748,749,750,751,752,753,754,729,730,731,732,729,730,731,732,733,734,735,736,737,738,739,740,741,742,743,744,745,746,747,748,749,750,751,752,753,754,729,730,731,732,733,734,735,736,737,738,739,740,741,742,729,730,731,732,733,734,735,736,737,738,739,740,741,742,743,744,745,746,747,748,749,750,751,752,753,754,729,730,731,732,733,734,735,736,
755,756,757,758,759,760,761,762,763,764,765,766,767,768,769,770,771,772,773,774,775,776,777,778,779,780,755,756,757,758,755,756,757,758,759,760,761,762,763,764,765,766,767,768,769,770,771,772,773,774,775,776,777,778,779,780,755,756,757,758,755,756,757,758,759,760,761,762,763,764,765,766,767,768,769,770,771,772,773,774,775,776,777,778,779,780,755,756,757,758,759,760,761,762,763,764,765,766,767,768,755,756,757,758,759,760,761,762,763,764,765,766,767,768,769,770,771,772,773,774,775,776,777,778,779,780,755,756,757,758,759,760,761,762,
781,782,783,784,785,786,787,788,789,790,791,792,793,794,795,796,797,798,799,800,801,802,803,804,805,806,781,782,783,784,781,782,783,784,785,786,787,788,789,790,791,792,793,794,795,796,797,798,799,800,801,802,803,804,805,806,781,782,783,784,781,782,783,784,785,786,787,788,789,790,791,792,793,794,795,796,797,798,799,800,801,802,803,804,805,806,781,782,783,784,785,786,787,788,789,790,791,792,793,794,781,782,783,784,785,786,787,788,789,790,791,792,793,794,795,796,797,798,799,800,801,802,803,804,805,806,781,782,783,784,785,786,787,788,
807,808,809,810,811,812,813,814,815,816,817,818,819,820,821,822,823,824,825,826,827,828,829,830,831,832,807,808,809,810,807,808,809,810,811,812,813,814,815,816,817,818,819,820,821,822,823,824,825,826,827,828,829,830,831,832,807,808,809,810,807,808,809,810,811,812,813,814,815,816,817,818,819,820,821,822,823,824,825,826,827,828,829,830,831,832,807,808,809,810,811,812,813,814,815,816,817,818,819,820,807,808,809,810,811,812,813,814,815,816,817,818,819,820,821,822,823,824,825,826,827,828,829,830,831,832,807,808,809,810,811,812,813,814
</data>
 </layer>
 <layer id="20" name="Vordergrund" width="134" height="16">
  <data encoding="csv">
0,0,0,0,0,0,0,0,0,0,0,0,0,0,0,0,0,0,0,0,0,0,0,0,0,0,0,0,0,0,0,0,0,0,0,0,0,0,0,0,0,0,0,0,0,0,0,0,0,0,0,0,0,0,0,0,0,0,0,0,0,0,0,0,0,0,0,0,0,0,0,0,0,0,0,0,0,0,0,0,0,0,0,0,0,0,0,0,0,0,0,0,0,0,0,0,0,0,0,0,0,0,0,0,0,0,0,0,0,0,0,0,0,0,0,0,0,0,0,0,0,0,0,0,0,0,0,0,0,0,0,0,0,0,
0,0,0,0,0,0,0,0,0,0,0,0,0,0,0,0,0,0,0,0,0,0,0,0,0,0,0,0,0,0,0,0,0,0,0,0,0,0,0,0,0,0,0,0,0,0,0,0,0,0,0,0,0,0,0,0,0,0,0,0,0,0,0,0,0,0,0,0,0,0,0,0,0,0,0,0,0,0,0,0,0,0,0,0,0,0,0,0,0,0,0,0,0,0,0,0,0,0,0,0,0,0,0,0,0,0,0,0,0,0,0,0,0,0,0,0,0,0,0,0,0,0,0,0,0,0,0,0,0,0,0,0,0,0,
0,0,0,0,0,0,0,0,0,0,0,0,0,0,0,0,0,0,0,0,0,0,0,0,0,0,0,0,0,0,0,0,0,0,0,0,0,0,0,0,0,0,0,0,0,0,0,0,0,0,0,0,0,0,0,0,0,0,0,0,0,0,0,0,0,0,0,0,0,0,0,0,0,0,0,0,0,0,0,0,0,0,0,0,0,0,0,0,0,0,0,0,0,0,0,0,0,0,0,0,0,0,0,0,0,0,0,0,0,0,0,0,0,0,0,0,0,0,0,0,0,0,0,0,0,0,0,0,0,0,0,0,0,0,
0,0,0,0,0,0,0,0,0,0,0,0,0,0,0,0,0,0,0,0,0,0,0,0,0,0,0,0,0,0,0,0,0,0,0,0,0,0,0,0,0,0,0,0,0,0,0,0,0,0,0,0,0,0,0,0,0,0,0,1374,1375,1376,1377,1378,1379,1380,1381,1374,1375,1376,1377,1378,1379,1380,1381,0,0,0,0,0,0,0,0,0,0,0,0,0,0,0,0,0,0,0,0,0,0,0,0,0,0,0,0,0,0,0,0,0,0,0,0,0,0,0,0,0,0,0,0,0,0,0,0,0,0,0,0,0,0,0,0,0,0,0,
0,0,0,0,0,0,0,0,0,0,0,0,0,0,0,0,0,0,0,0,0,0,0,0,0,0,0,0,0,0,0,0,0,0,0,0,0,0,0,0,0,0,0,0,0,0,0,0,0,1707,1708,1709,1710,1711,1712,0,0,0,0,1409,1410,1411,1412,1413,1414,1415,1416,1409,1410,1411,1412,1413,1414,1415,1416,1761,1762,1763,1764,1765,1766,1767,0,0,0,0,0,0,0,0,1417,1418,1419,1420,1421,1422,0,0,0,0,0,0,0,0,0,0,0,0,0,0,0,0,0,0,0,0,0,0,0,0,0,0,0,0,0,0,0,0,0,0,0,0,0,0,
0,0,0,0,0,0,0,0,0,0,0,0,0,0,0,0,0,0,0,0,0,0,0,0,0,0,0,0,0,0,0,0,0,0,0,0,0,0,0,0,0,0,0,0,0,0,0,0,0,1742,1743,1744,1745,1746,1747,1748,0,0,0,1444,1445,1446,1447,1448,1449,1450,1451,1444,1445,1446,1447,1448,1449,1450,1451,1796,1797,1798,1799,1800,1801,1802,1803,1804,1805,1806,1807,0,0,0,1452,1453,1454,1455,1456,1457,0,0,0,0,0,0,0,0,0,0,0,0,0,0,0,0,0,0,0,0,0,0,0,0,0,0,0,0,0,0,0,0,0,0,0,0,0,0,
0,0,0,0,0,0,0,0,0,0,0,0,0,0,0,0,0,0,0,0,0,0,0,0,0,0,0,0,0,0,0,0,0,0,0,0,0,0,0,0,0,0,0,0,0,0,0,0,0,1777,1778,1779,1780,1781,1782,1783,0,0,0,1479,1480,1481,1482,1483,1484,1485,1486,1479,1480,1481,1482,1483,1484,1485,1486,1831,1832,1833,1834,1835,1836,1837,1838,1839,1840,1841,1842,0,0,0,1487,1488,1489,1490,1491,1492,0,0,0,0,0,0,0,0,0,0,0,0,0,0,0,0,0,0,0,0,0,0,0,0,0,0,0,0,0,0,0,0,0,0,0,0,0,0,
0,0,0,0,0,0,0,0,0,0,0,0,0,0,0,0,0,0,0,0,0,0,0,0,0,0,0,0,0,0,0,0,0,0,0,0,0,0,0,0,0,0,0,0,0,0,0,0,0,1812,1813,1814,1815,1816,1817,1818,0,0,0,1514,1515,1516,1517,1518,1519,1520,1521,1514,1515,1516,1517,1518,1519,1520,1521,1866,1867,1868,1869,1870,1871,1872,1873,1874,1875,1876,1877,0,0,0,1522,1523,1524,1525,1526,1527,0,0,0,1423,1424,1425,1426,0,0,0,0,0,0,0,0,0,0,0,0,0,0,0,0,0,0,0,0,0,1820,1821,1822,1823,1824,1825,1826,1827,1828,1829,
0,0,0,0,0,0,0,0,0,0,0,0,0,0,0,0,0,0,0,0,0,0,0,0,0,0,0,0,0,0,0,0,0,0,0,0,0,0,0,0,0,0,0,0,0,0,0,0,0,1847,1848,1849,1850,1851,1852,1853,0,0,0,1549,1550,1551,1552,1553,1554,1555,1556,1549,1550,1551,1552,1553,1554,1555,1556,1901,1902,1903,1904,1905,1906,1907,1908,1909,1910,1911,1912,0,0,0,1557,1558,1559,1560,1561,1562,0,0,0,1458,1459,1460,1461,0,0,0,0,0,0,0,0,0,0,0,0,0,0,0,0,0,0,0,0,0,1855,1856,1857,1858,1859,1860,1861,1862,1863,1864,
0,0,0,0,0,0,0,0,0,0,0,0,0,0,0,0,0,0,0,0,0,0,0,0,0,0,0,0,0,0,0,0,0,0,0,0,0,0,0,0,0,0,0,0,0,0,0,0,0,1882,1883,1884,1885,1886,1887,1888,0,0,0,1584,1585,1586,1587,1588,1589,1590,1591,1584,1585,1586,1587,1588,1589,1590,1591,1936,1937,1938,1939,1940,1941,1942,1943,1944,1945,1946,1947,0,0,0,1592,1593,1594,1595,1596,1597,0,0,0,1493,1494,1495,1496,0,0,0,0,0,0,0,0,0,0,0,0,0,0,0,0,0,0,0,0,0,1890,1891,1892,1893,1894,1895,1896,1897,1898,1899,
0,0,0,0,0,0,0,0,0,0,0,0,0,0,0,0,0,0,0,0,0,0,0,0,0,0,0,0,0,0,0,0,0,0,0,0,0,0,0,0,0,0,0,0,0,0,0,0,0,1917,1918,1919,1920,1921,1922,1923,0,0,0,1619,1620,1621,1622,1623,1624,1625,1626,1619,1620,1621,1622,1623,1624,1625,1626,1971,1972,1973,1974,1975,1976,1977,1978,1979,1980,1981,1982,0,0,0,1627,1628,1629,1630,1631,1632,0,0,0,1528,1529,1530,1531,0,0,0,0,0,0,0,0,0,0,0,0,0,0,0,0,0,0,0,0,0,1925,1926,1927,1928,1929,1930,1931,1932,1933,1934,
0,0,0,0,0,0,0,0,0,0,0,0,0,0,0,0,0,0,0,0,0,0,0,0,0,0,0,0,0,0,0,0,0,0,0,0,0,0,0,0,0,0,0,0,0,0,0,0,0,1952,1953,1954,1955,1956,1957,1958,0,0,0,1654,1655,1656,1657,1658,1659,1660,1661,1654,1655,1656,1657,1658,1659,1660,1661,2006,2007,2008,2009,2010,2011,2012,2013,2014,2015,2016,2017,0,0,0,1662,1663,1664,1665,1666,1667,0,0,0,1563,1564,1565,1566,0,0,1365,1366,1367,1368,1369,0,0,0,0,0,0,0,0,0,0,0,0,0,0,1960,1961,1962,1963,1964,1965,1966,1967,1968,1969,
0,0,0,0,0,0,2104,0,0,0,0,0,0,0,0,0,0,0,0,0,0,0,0,2104,0,0,0,0,0,0,0,0,0,0,0,0,0,0,0,0,0,0,0,0,0,0,0,0,0,1987,1988,1989,1990,1991,1992,1993,0,0,0,1689,1690,1691,1692,1693,1694,1695,1696,1689,1690,1691,1692,1693,1694,1695,1696,2041,2042,2043,2044,2045,2046,2047,2048,2049,2050,2051,2052,0,0,0,1697,1698,1699,1700,1701,1702,0,0,0,1598,1599,1600,1601,0,0,1400,1401,1402,1403,1404,0,0,0,0,0,0,2104,0,0,0,0,0,0,0,1995,1996,1997,1998,1999,2000,2001,2002,2003,2004,
0,0,0,0,0,0,0,0,0,0,0,0,0,0,0,0,0,0,0,0,0,0,0,0,0,0,0,0,0,0,0,0,0,0,0,0,0,0,0,0,0,0,0,0,0,0,0,0,0,2022,2023,2024,2025,2026,2027,2028,0,0,0,1724,1725,1726,1727,1728,1729,1730,1731,1724,1725,1726,1727,1728,1729,1730,1731,2076,2077,2078,2079,2080,2081,2082,2083,2084,2085,2086,2087,0,0,0,1732,1733,1734,1735,1736,1737,0,0,0,1633,1634,1635,1636,0,0,1435,1436,1437,1438,1439,0,0,0,0,0,0,0,0,0,0,0,0,0,0,2030,2031,2032,2033,2034,2035,2036,2037,2038,2039,
0,0,0,0,0,0,0,0,0,0,0,0,0,0,0,0,0,0,0,0,0,0,0,0,0,0,0,0,0,0,0,0,0,0,0,0,0,0,0,0,0,0,0,0,0,0,0,0,0,2057,2058,2059,2060,2061,2062,2063,0,0,0,0,0,0,0,0,0,0,0,0,0,0,0,0,0,0,0,0,0,0,0,0,0,0,0,0,0,0,0,0,0,0,0,0,0,0,0,0,0,0,0,0,0,0,0,0,0,1470,1471,1472,1473,1474,0,0,0,0,0,0,0,0,0,0,0,0,0,0,2065,2066,2067,2068,2069,2070,2071,2072,2073,2074,
0,0,0,0,0,0,0,0,0,0,0,0,0,0,0,0,0,0,0,0,0,0,0,0,0,0,0,0,0,0,0,0,0,0,0,0,0,0,0,0,0,0,0,0,0,0,0,0,0,0,0,0,0,0,0,0,0,0,0,0,0,0,0,0,0,0,0,0,0,0,0,0,0,0,0,0,0,0,0,0,0,0,0,0,0,0,0,0,0,0,0,0,0,0,0,0,0,0,0,0,0,0,0,0,0,1505,1506,1507,1508,1509,0,0,0,0,0,0,0,0,0,0,0,0,0,0,0,0,0,0,0,0,0,0,0,0
</data>
 </layer>
</map>
