<?xml version="1.0" encoding="UTF-8"?>
<map version="1.10" tiledversion="1.11.0" orientation="orthogonal" renderorder="right-down" width="40" height="10" tilewidth="16" tileheight="16" infinite="0" nextlayerid="5" nextobjectid="19">
 <tileset firstgid="1" source="tilesets/sheet.tsx"/>
 <layer id="1" name="Tile Layer 1" width="40" height="10">
  <data encoding="csv">
0,0,0,0,0,0,0,0,0,0,0,0,0,0,0,0,0,0,0,0,0,0,0,0,0,0,0,0,0,0,0,0,0,0,0,0,0,0,0,0,
0,0,0,0,0,0,0,0,0,0,0,0,0,0,0,0,0,0,0,0,0,0,0,0,0,0,0,0,0,0,0,0,0,0,0,0,0,0,0,0,
0,0,0,0,0,0,0,0,0,0,0,0,0,0,0,0,0,0,0,0,0,0,0,0,0,0,0,0,0,0,0,0,0,0,0,0,0,0,0,0,
0,0,0,0,0,0,0,0,0,0,0,0,0,0,0,0,0,0,0,0,0,0,0,0,0,0,0,0,0,0,0,0,0,0,0,0,0,0,0,0,
0,0,0,0,0,0,0,0,0,0,0,0,0,0,0,0,0,0,0,0,0,0,0,0,0,0,0,0,0,0,0,0,0,0,0,0,0,0,0,0,
0,0,0,0,0,0,0,0,0,0,0,0,0,0,0,0,0,0,0,0,0,0,0,0,0,0,0,0,0,0,0,0,0,0,0,0,0,0,0,0,
0,0,0,0,0,0,45,46,46,46,47,0,0,0,0,0,0,0,0,45,46,46,46,47,0,0,0,0,0,0,0,0,0,0,0,0,0,0,0,0,
0,0,0,0,0,0,62,59,59,59,64,0,0,0,0,0,0,0,0,62,59,59,59,64,0,0,0,0,0,0,0,0,0,0,0,0,0,0,0,0,
43,43,43,43,43,43,59,59,59,59,59,43,43,43,43,43,43,43,43,59,59,59,59,59,43,43,43,43,43,43,43,43,43,43,43,43,43,43,43,43,
59,59,59,59,59,59,59,59,59,59,59,59,59,59,59,59,59,59,59,59,59,59,59,59,59,59,59,59,59,59,59,59,59,59,59,59,59,59,59,59
</data>
 </layer>
 <objectgroup id="2" name="Walls">
  <object id="3" x="0" y="0" height="160"/>
  <object id="4" x="96" y="96" height="32"/>
  <object id="5" x="176" y="96" height="32"/>
  <object id="7" x="640" y="0" height="160"/>
  <object id="13" x="304" y="96" height="32"/>
  <object id="14" x="384" y="96" height="32"/>
 </objectgroup>
 <objectgroup id="3" name="Ground">
  <object id="9" x="-48" y="128" width="736" height="32"/>
  <object id="10" x="96" y="96" width="80" height="32"/>
  <object id="12" x="304" y="96" width="80" height="32"/>
 </objectgroup>
 <objectgroup id="4" name="Enemies">
  <object id="15" x="128" y="80" width="16" height="16">
   <properties>
    <property name="type" value="PatrollingEnemy"/>
   </properties>
  </object>
  <object id="17" x="240" y="112" width="16" height="16">
   <properties>
    <property name="type" value="PatrollingEnemy"/>
   </properties>
  </object>
  <object id="18" x="336" y="80" width="16" height="16">
   <properties>
    <property name="type" value="PatrollingEnemy"/>
   </properties>
  </object>
 </objectgroup>
</map>
