<?xml version="1.0" encoding="UTF-8"?>
<map version="1.10" tiledversion="1.11.0" orientation="orthogonal" renderorder="right-down" width="40" height="10" tilewidth="16" tileheight="16" infinite="0" nextlayerid="7" nextobjectid="29">
 <tileset firstgid="1" source="1_Industrial_Tileset_1.tsx"/>
 <tileset firstgid="97" source="3_Far_Background_Tile.tsx"/>
 <tileset firstgid="101" source="sheet.tsx"/>
 <tileset firstgid="237" source="1_Industrial_Tileset_1B.tsx"/>
 <layer id="6" name="Background" width="40" height="10">
  <data encoding="csv">
97,97,97,97,97,97,97,97,97,97,97,97,97,97,97,97,97,97,97,97,97,97,97,97,97,97,97,97,97,97,97,97,97,97,97,97,97,97,97,97,
97,97,97,97,97,97,97,97,97,97,97,97,97,97,97,97,97,97,97,97,97,97,97,97,97,97,97,97,97,97,97,97,97,97,97,97,97,97,97,97,
97,97,97,97,97,97,97,97,97,97,97,97,97,97,97,97,97,97,97,97,97,97,97,97,97,97,97,97,97,97,97,97,97,97,97,97,97,97,97,97,
97,97,97,97,97,97,97,97,97,97,97,97,97,97,97,97,97,97,97,97,97,97,97,97,97,97,97,97,97,97,97,97,97,97,97,97,97,97,97,97,
97,97,97,97,97,97,97,97,97,97,97,97,97,97,97,97,97,97,97,97,97,97,97,97,97,97,97,97,97,97,97,97,97,97,97,97,97,97,97,97,
97,97,97,97,97,97,97,97,97,97,97,97,97,97,97,97,97,97,97,97,97,97,97,97,97,97,97,97,97,97,97,97,97,97,97,97,97,97,97,97,
97,97,97,97,97,97,97,97,97,97,97,97,97,97,97,97,97,97,97,97,97,97,97,97,97,97,97,97,97,97,97,97,97,97,97,97,97,97,97,97,
97,97,97,97,97,97,97,97,97,97,97,97,97,97,97,97,97,97,97,97,97,97,97,97,97,97,97,97,97,97,97,97,97,97,97,97,97,97,97,97,
97,97,97,97,97,97,97,97,97,97,97,97,97,97,97,97,97,97,97,97,97,97,97,97,97,97,97,97,97,97,97,97,97,97,97,97,97,97,97,97,
97,97,97,97,97,97,97,97,97,97,97,97,97,97,97,97,97,97,97,97,97,97,97,97,97,97,97,97,97,97,97,97,97,97,97,97,97,97,97,97
</data>
 </layer>
 <layer id="1" name="GraphicLayer" width="40" height="10">
  <data encoding="csv">
0,0,0,0,0,0,0,0,0,0,0,0,0,0,0,0,0,0,0,0,0,0,0,0,0,0,0,0,0,0,0,0,0,0,0,0,0,97,97,97,
0,0,0,0,0,0,0,0,0,0,0,0,0,0,0,0,0,0,0,0,0,0,0,0,0,0,0,0,0,0,0,0,0,0,0,0,0,97,97,97,
0,0,0,0,0,0,0,0,0,0,0,0,0,0,0,0,0,0,0,0,0,0,0,0,0,0,0,0,0,0,0,0,0,0,0,0,0,97,97,97,
0,0,0,0,0,0,0,0,0,0,0,0,0,0,0,0,0,0,0,0,0,0,0,0,0,0,0,0,0,0,0,0,0,0,0,0,0,267,268,97,
0,0,0,0,0,0,0,0,0,0,0,0,0,0,0,0,176,0,0,0,0,0,0,0,0,0,0,0,0,0,1,3,4,5,6,0,0,279,280,97,
0,0,0,0,0,0,0,0,0,0,0,0,0,0,0,0,193,31,3,4,7,8,0,0,0,0,0,0,0,0,13,15,16,17,18,0,0,291,292,97,
0,0,0,0,0,0,0,0,0,0,0,0,0,0,0,0,193,55,39,40,41,42,0,25,26,27,28,29,26,0,0,0,0,0,0,0,0,303,304,97,
0,0,0,0,0,0,31,2,4,4,4,4,30,0,0,0,193,43,70,21,53,54,0,37,38,39,40,41,42,0,0,0,0,0,0,0,0,315,316,97,
0,0,0,0,0,0,43,38,38,38,39,41,42,0,0,0,210,79,70,33,65,66,0,49,50,51,52,53,54,0,0,0,0,0,0,0,0,327,328,97,
2,3,4,5,6,0,55,39,39,40,22,53,22,1,7,4,5,91,70,45,65,66,0,61,62,63,64,65,66,0,0,0,0,0,0,0,0,267,268,97
</data>
 </layer>
 <objectgroup id="2" name="Ground">
  <object id="12" x="208" y="144" width="64" height="16"/>
  <object id="14" x="272" y="80" width="80" height="80"/>
  <object id="15" x="368" y="96" width="96" height="64"/>
  <object id="16" x="480" y="64" width="80" height="32"/>
  <object id="17" x="592" y="48" width="32" height="112"/>
  <object id="18" x="0" y="0" height="96"/>
  <object id="20" x="640" y="0" height="160"/>
  <object id="22" x="0" y="144" width="80" height="16"/>
  <object id="23" x="96" y="112" width="112" height="48"/>
  <object id="25" x="0" y="0" height="144"/>
 </objectgroup>
 <objectgroup id="3" name="Ladder">
  <object id="27" x="256" y="64" width="16" height="80"/>
 </objectgroup>
</map>
