<?xml version="1.0" encoding="UTF-8"?>
<map version="1.10" tiledversion="1.11.0" orientation="orthogonal" renderorder="right-down" width="15" height="10" tilewidth="16" tileheight="16" infinite="0" nextlayerid="6" nextobjectid="5">
 <tileset firstgid="1" source="sheet.tsx"/>
 <tileset firstgid="137" source="schwebebahn_1.tsx"/>
 <layer id="4" name="background" width="15" height="10" tintcolor="#ffffff">
  <data encoding="csv">
98,98,98,98,98,98,98,98,98,98,98,98,98,98,98,
98,98,98,98,98,98,98,98,98,98,98,98,98,98,98,
98,98,98,98,98,98,98,98,98,98,98,98,98,98,98,
98,98,98,98,98,98,98,98,98,98,98,98,98,98,98,
98,98,98,98,98,98,98,98,98,98,98,98,98,98,98,
98,98,98,98,98,98,98,98,98,98,98,98,98,98,98,
98,98,98,98,98,98,98,98,98,98,98,98,98,98,98,
98,98,98,98,98,98,98,98,98,98,98,98,98,98,98,
98,98,98,98,98,98,98,98,98,98,98,98,98,98,98,
98,98,98,98,98,98,98,98,98,98,98,98,98,98,98
</data>
 </layer>
 <layer id="5" name="background elements" width="15" height="10" opacity="0.6">
  <data encoding="csv">
0,0,0,0,0,0,0,0,137,138,139,140,141,142,143,
0,0,0,0,0,24,0,0,147,148,149,150,151,152,153,
0,0,0,0,0,41,0,0,157,158,159,160,161,162,163,
0,54,0,0,0,58,0,0,0,0,0,0,0,0,0,
0,71,0,0,0,75,0,0,0,0,0,0,0,0,0,
0,88,0,0,0,92,0,0,0,0,0,0,0,0,0,
0,105,0,0,0,109,0,0,0,0,0,0,0,0,0,
0,0,0,0,0,126,0,0,0,0,0,0,0,0,0,
0,0,0,0,0,0,0,0,0,0,0,0,0,0,0,
0,0,0,0,0,0,0,0,0,0,0,0,0,0,0
</data>
 </layer>
 <layer id="2" name="ground" width="15" height="10">
  <data encoding="csv">
0,0,0,0,0,0,0,0,0,0,0,0,0,0,0,
0,0,0,0,0,0,0,0,0,0,0,0,0,0,0,
0,0,0,0,0,0,0,0,0,0,0,0,0,0,0,
0,0,0,0,0,0,0,0,0,0,0,0,0,0,0,
0,0,0,0,0,0,0,0,0,0,0,0,0,0,0,
0,0,0,0,0,0,0,0,0,26,27,0,0,0,0,
0,0,0,0,0,0,0,0,0,28,30,0,0,0,0,
0,63,0,0,0,0,100,0,0,28,30,63,0,118,119,
9,9,9,9,9,9,9,9,9,9,9,9,9,9,9,
29,29,29,29,29,29,29,29,29,29,29,29,29,29,29
</data>
 </layer>
 <objectgroup id="3" name="Object Layer 1">
  <object id="1" x="0" y="128" width="240" height="32"/>
  <object id="2" x="144" y="80" width="32" height="48"/>
 </objectgroup>
</map>
