<?xml version="1.0" encoding="UTF-8"?>
<map version="1.10" tiledversion="1.11.0" orientation="orthogonal" renderorder="right-down" width="64" height="24" tilewidth="16" tileheight="16" infinite="0" nextlayerid="17" nextobjectid="172">
 <editorsettings>
  <export target="wintermap.tmx" format="tmx"/>
 </editorsettings>
 <tileset firstgid="1" source="Sample.tsx"/>
 <tileset firstgid="1025" source="sky.tsx"/>
 <tileset firstgid="1441" source="mid-layer-b.tsx"/>
 <tileset firstgid="1701" source="mid-layer-a.tsx"/>
 <tileset firstgid="1961" source="Props.tsx"/>
 <tileset firstgid="2217" source="prop-sheet.tsx"/>
 <tileset firstgid="2622" source="sheet.tsx"/>
 <layer id="2" name="Background 1" width="64" height="24">
  <data encoding="csv">
1025,1026,1027,1028,1029,1030,1031,1032,1033,1034,1035,1036,1037,1038,1039,1040,1041,1042,1043,1044,1045,1046,1047,1048,1049,1050,1025,1026,1027,1028,1029,1030,1031,1032,1033,1034,1035,1036,1037,1038,1039,1040,1041,1042,1043,1044,1045,1046,1047,1048,1049,1050,1025,1026,1027,1028,1029,1030,1031,1032,1033,1034,1035,1036,
1051,1052,1053,1054,1055,1056,1057,1058,1059,1060,1061,1062,1063,1064,1065,1066,1067,1068,1069,1070,1071,1072,1073,1074,1075,1076,1051,1052,1053,1054,1055,1056,1057,1058,1059,1060,1061,1062,1063,1064,1065,1066,1067,1068,1069,1070,1071,1072,1073,1074,1075,1076,1051,1052,1053,1054,1055,1056,1057,1058,1059,1060,1061,1062,
1077,1078,1079,1080,1081,1082,1083,1084,1085,1086,1087,1088,1089,1090,1091,1092,1093,1094,1095,1096,1097,1098,1099,1100,1101,1102,1077,1078,1079,1080,1081,1082,1083,1084,1085,1086,1087,1088,1089,1090,1091,1092,1093,1094,1095,1096,1097,1098,1099,1100,1101,1102,1077,1078,1079,1080,1081,1082,1083,1084,1085,1086,1087,1088,
1103,1104,1105,1106,1107,1108,1109,1110,1111,1112,1113,1114,1115,1116,1117,1118,1119,1120,1121,1122,1123,1124,1125,1126,1127,1128,1103,1104,1105,1106,1107,1108,1109,1110,1111,1112,1113,1114,1115,1116,1117,1118,1119,1120,1121,1122,1123,1124,1125,1126,1127,1128,1103,1104,1105,1106,1107,1108,1109,1110,1111,1112,1113,1114,
1129,1130,1131,1132,1133,1134,1135,1136,1137,1138,1139,1140,1141,1142,1143,1144,1145,1146,1147,1148,1149,1150,1151,1152,1153,1154,1129,1130,1131,1132,1133,1134,1135,1136,1137,1138,1139,1140,1141,1142,1143,1144,1145,1146,1147,1148,1149,1150,1151,1152,1153,1154,1129,1130,1131,1132,1133,1134,1135,1136,1137,1138,1139,1140,
1155,1156,1157,1158,1159,1160,1161,1162,1163,1164,1165,1166,1167,1168,1169,1170,1171,1172,1173,1174,1175,1176,1177,1178,1179,1180,1155,1156,1157,1158,1159,1160,1161,1162,1163,1164,1165,1166,1167,1168,1169,1170,1171,1172,1173,1174,1175,1176,1177,1178,1179,1180,1155,1156,1157,1158,1159,1160,1161,1162,1163,1164,1165,1166,
1181,1182,1183,1184,1185,1186,1187,1188,1189,1190,1191,1192,1193,1194,1195,1196,1197,1198,1199,1200,1201,1202,1203,1204,1205,1206,1181,1182,1183,1184,1185,1186,1187,1188,1189,1190,1191,1192,1193,1194,1195,1196,1197,1198,1199,1200,1201,1202,1203,1204,1205,1206,1181,1182,1183,1184,1185,1186,1187,1188,1189,1190,1191,1192,
1207,1208,1209,1210,1211,1212,1213,1214,1215,1216,1217,1218,1219,1220,1221,1222,1223,1224,1225,1226,1227,1228,1229,1230,1231,1232,1207,1208,1209,1210,1211,1212,1213,1214,1215,1216,1217,1218,1219,1220,1221,1222,1223,1224,1225,1226,1227,1228,1229,1230,1231,1232,1207,1208,1209,1210,1211,1212,1213,1214,1215,1216,1217,1218,
1233,1234,1235,1236,1237,1238,1239,1240,1241,1242,1243,1244,1245,1246,1247,1248,1249,1250,1251,1252,1253,1254,1255,1256,1257,1258,1233,1234,1235,1236,1237,1238,1239,1240,1241,1242,1243,1244,1245,1246,1247,1248,1249,1250,1251,1252,1253,1254,1255,1256,1257,1258,1233,1234,1235,1236,1237,1238,1239,1240,1241,1242,1243,1244,
1259,1260,1261,1262,1263,1264,1265,1266,1267,1268,1269,1270,1271,1272,1273,1274,1275,1276,1277,1278,1279,1280,1281,1282,1283,1284,1259,1260,1261,1262,1263,1264,1265,1266,1267,1268,1269,1270,1271,1272,1273,1274,1275,1276,1277,1278,1279,1280,1281,1282,1283,1284,1259,1260,1261,1262,1263,1264,1265,1266,1267,1268,1269,1270,
1285,1286,1287,1288,1289,1290,1291,1292,1293,1294,1295,1296,1297,1298,1299,1300,1301,1302,1303,1304,1305,1306,1307,1308,1309,1310,1285,1286,1287,1288,1289,1290,1291,1292,1293,1294,1295,1296,1297,1298,1299,1300,1301,1302,1303,1304,1305,1306,1307,1308,1309,1310,1285,1286,1287,1288,1289,1290,1291,1292,1293,1294,1295,1296,
1311,1312,1313,1314,1315,1316,1317,1318,1319,1320,1321,1322,1323,1324,1325,1326,1327,1328,1329,1330,1331,1332,1333,1334,1335,1336,1311,1312,1313,1314,1315,1316,1317,1318,1319,1320,1321,1322,1323,1324,1325,1326,1327,1328,1329,1330,1331,1332,1333,1334,1335,1336,1311,1312,1313,1314,1315,1316,1317,1318,1319,1320,1321,1322,
1337,1338,1339,1340,1341,1342,1343,1344,1345,1346,1347,1348,1349,1350,1351,1352,1353,1354,1355,1356,1357,1358,1359,1360,1361,1362,1337,1338,1339,1340,1341,1342,1343,1344,1345,1346,1347,1348,1349,1350,1351,1352,1353,1354,1355,1356,1357,1358,1359,1360,1361,1362,1337,1338,1339,1340,1341,1342,1343,1344,1345,1346,1347,1348,
1363,1364,1365,1366,1367,1368,1369,1370,1371,1372,1373,1374,1375,1376,1377,1378,1379,1380,1381,1382,1383,1384,1385,1386,1387,1388,1363,1364,1365,1366,1367,1368,1369,1370,1371,1372,1373,1374,1375,1376,1377,1378,1379,1380,1381,1382,1383,1384,1385,1386,1387,1388,1363,1364,1365,1366,1367,1368,1369,1370,1371,1372,1373,1374,
1389,1390,1391,1392,1393,1394,1395,1396,1397,1398,1399,1400,1401,1402,1403,1404,1405,1406,1407,1408,1409,1410,1411,1412,1413,1414,1389,1390,1391,1392,1393,1394,1395,1396,1397,1398,1399,1400,1401,1402,1403,1404,1405,1406,1407,1408,1409,1410,1411,1412,1413,1414,1389,1390,1391,1392,1393,1394,1395,1396,1397,1398,1399,1400,
1415,1416,1417,1418,1419,1420,1421,1422,1423,1424,1425,1426,1427,1428,1429,1430,1431,1432,1433,1434,1435,1436,1437,1438,1439,1440,1415,1416,1417,1418,1419,1420,1421,1422,1423,1424,1425,1426,1427,1428,1429,1430,1431,1432,1433,1434,1435,1436,1437,1438,1439,1440,1415,1416,1417,1418,1419,1420,1421,1422,1423,1424,1425,1426,
1311,1312,1313,1314,1315,1316,1317,1318,1319,1320,1321,1322,1323,1324,1325,1326,1327,1328,1329,1330,1331,1332,1333,1334,1335,1336,1311,1312,1313,1314,1315,1316,1317,1318,1319,1320,1321,1322,1311,1312,1313,1314,1315,1316,1317,1318,1319,1320,1321,1322,1323,1324,1325,1326,1327,1328,1329,1330,1331,1332,1333,1334,1335,1336,
1337,1338,1339,1340,1341,1342,1343,1344,1345,1346,1347,1348,1349,1350,1351,1352,1353,1354,1355,1356,1357,1358,1359,1360,1361,1362,1337,1338,1339,1340,1341,1342,1343,1344,1345,1346,1347,1348,1337,1338,1339,1340,1341,1342,1343,1344,1345,1346,1347,1348,1349,1350,1351,1352,1353,1354,1355,1356,1357,1358,1359,1360,1361,1362,
1311,1312,1313,1314,1315,1316,1317,1318,1319,1320,1321,1322,1323,1324,1325,1326,1327,1328,1329,1330,1331,1332,1333,1334,1335,1336,1363,1364,1365,1366,1367,1368,1369,1370,1371,1372,1373,1374,1363,1364,1365,1366,1367,1368,1369,1370,1371,1372,1373,1374,1375,1376,1377,1378,1379,1380,1381,1382,1383,1384,1385,1386,1387,1388,
1311,1312,1313,1314,1315,1316,1317,1318,1319,1320,1321,1322,1323,1324,1325,1326,1327,1328,1329,1330,1331,1332,1333,1334,1335,1336,1325,1326,1327,1328,1329,1330,1331,1332,1333,1334,1335,1336,1311,1312,1313,1314,1315,1316,1317,1318,1319,1320,1321,1322,1323,1324,1325,1326,1327,1328,1329,1330,1331,1332,1333,1334,1335,1336,
1337,1338,1339,1340,1341,1342,1343,1344,1345,1346,1347,1348,1349,1350,1351,1352,1353,1354,1355,1356,1357,1358,1359,1360,1361,1362,1351,1352,1353,1354,1355,1356,1357,1358,1359,1360,1361,1362,1337,1338,1339,1340,1341,1342,1343,1344,1345,1346,1347,1348,1349,1350,1351,1352,1353,1354,1355,1356,1357,1358,1359,1360,1361,1362,
1691,1692,1693,1694,1695,1695,1695,1695,1695,1695,1695,1695,1695,1695,1695,1695,1695,1691,1691,1691,1691,1691,1691,1691,1691,1691,1691,1691,1691,1691,1691,1691,1691,1691,1691,1691,1691,1691,1691,1691,1691,1691,1691,1691,1691,1691,1691,1691,1691,1691,1691,1691,1691,1691,1691,1691,1691,1691,1691,1691,1692,1693,1694,1695,
1233,1234,1235,1236,1237,1238,1239,1240,1241,1242,1243,1244,1245,1402,1403,1404,1405,1406,1407,1408,1409,1410,1411,1412,1413,1414,1403,1404,1405,1406,1407,1408,1409,1410,1411,1412,1413,1414,1389,1390,1391,1392,1393,1394,1395,1396,1397,1398,1399,1400,1401,1402,1403,1404,1405,1406,1407,1408,1409,1410,1411,1412,1413,1414,
1259,1260,1261,1262,1263,1264,1265,1266,1267,1268,1269,1270,1271,1428,1429,1430,1431,1432,1433,1434,1435,1436,1437,1438,1439,1440,1429,1430,1431,1432,1433,1434,1435,1436,1437,1438,1439,1440,1415,1416,1417,1418,1419,1420,1421,1422,1423,1424,1425,1426,1427,1428,1429,1430,1431,1432,1433,1434,1435,1436,1437,1438,1439,1440
</data>
 </layer>
 <layer id="3" name="Background 2" width="64" height="24">
  <data encoding="csv">
0,0,0,0,0,0,0,0,0,0,0,0,0,0,0,0,0,0,0,0,0,0,0,0,0,0,0,0,0,0,0,0,0,0,0,0,0,0,0,0,0,0,0,0,0,0,0,0,0,0,0,0,0,0,0,0,0,0,0,0,0,0,0,0,
0,0,0,0,0,0,0,0,0,0,0,0,0,0,0,0,0,0,0,0,0,0,0,0,0,0,0,0,0,0,0,0,0,0,0,0,0,0,0,0,0,0,0,0,0,0,0,0,0,0,0,0,0,0,0,0,0,0,0,0,0,0,0,0,
0,0,0,0,0,0,0,0,0,0,0,0,0,0,0,0,0,0,0,0,0,0,0,0,0,0,0,0,0,0,0,0,0,0,0,0,0,0,0,0,0,0,0,0,0,0,0,0,0,0,0,0,0,0,0,0,0,0,0,0,0,0,0,0,
0,0,0,0,0,0,0,0,0,0,0,0,0,0,0,0,0,0,0,0,0,0,0,0,0,0,0,0,0,0,0,0,0,0,0,0,0,0,0,0,0,0,0,0,0,0,0,0,0,0,0,0,0,0,0,0,0,0,0,0,0,0,0,0,
0,0,0,0,0,0,0,0,0,0,0,0,0,0,0,0,0,0,0,0,0,0,0,0,0,0,0,0,0,0,0,0,0,0,0,0,0,0,0,0,0,0,0,0,0,0,0,0,0,0,0,0,0,0,0,0,0,0,0,0,0,0,0,0,
0,0,0,0,0,0,0,0,0,0,0,0,0,0,0,0,0,0,0,0,0,0,0,0,0,0,0,0,0,0,0,0,0,0,0,0,0,0,0,0,0,0,0,0,0,0,0,0,0,0,0,0,0,0,0,0,0,0,0,0,0,0,0,0,
0,0,0,0,0,0,0,0,0,0,0,0,0,0,0,0,0,0,0,0,0,0,0,0,0,0,0,0,0,0,0,0,0,0,0,0,0,0,0,0,0,0,0,0,0,0,0,0,0,0,0,0,0,0,0,0,0,0,0,0,0,0,0,0,
0,0,0,0,0,0,0,0,0,0,0,0,0,0,0,0,0,0,0,0,0,0,0,0,0,0,0,0,0,0,0,0,0,0,0,0,0,0,0,0,0,0,0,0,0,0,0,0,0,0,0,0,0,0,0,0,0,0,0,0,0,0,0,0,
0,0,0,0,0,0,0,0,0,0,0,0,0,0,0,0,0,0,0,0,0,0,0,0,0,0,0,0,0,0,0,0,0,0,0,0,0,0,0,0,0,0,0,0,0,0,0,0,0,0,0,0,0,0,0,0,0,0,0,0,0,0,0,0,
0,0,0,0,0,0,0,0,0,0,0,0,0,0,0,0,0,0,0,0,0,0,0,0,0,0,0,0,0,0,0,0,0,0,0,0,0,0,0,0,0,0,0,0,0,0,0,0,0,0,0,0,0,0,0,0,0,0,0,0,0,0,0,0,
0,0,0,0,0,0,0,0,0,0,0,0,0,0,0,0,0,0,0,0,0,0,0,0,0,0,0,0,0,0,0,0,0,0,0,0,0,0,0,0,0,0,0,0,0,0,0,0,0,0,0,0,0,0,0,0,0,0,0,0,0,0,0,0,
1441,1442,1443,1444,1445,1446,1447,1448,1449,1450,1451,1452,1453,1454,1455,1456,1457,1458,1459,1460,1461,1462,1463,1464,1465,1466,1701,1702,1703,1704,1705,1706,1707,1708,1709,1710,1711,1712,1713,1714,1715,1716,1717,1718,1719,1720,1721,1722,1723,1724,1725,1726,1441,1442,1443,1444,1445,1446,1447,1448,1449,1450,1451,1452,
1467,1468,1469,1470,1471,1472,1473,1474,1475,1476,1477,1478,1479,1480,1481,1482,1483,1484,1485,1486,1487,1488,1489,1490,1491,1492,1727,1728,1729,1730,1731,1732,1733,1734,1735,1736,1737,1738,1739,1740,1741,1742,1743,1744,1745,1746,1747,1748,1749,1750,1751,1752,1467,1468,1469,1470,1471,1472,1473,1474,1475,1476,1477,1478,
1493,1494,1495,1496,1497,1498,1499,1500,1501,1502,1503,1504,1505,1506,1507,1508,1509,1510,1511,1512,1513,1514,1515,1516,1517,1518,1753,1754,1755,1756,1757,1758,1759,1760,1761,1762,1763,1764,1765,1766,1767,1768,1769,1770,1771,1772,1773,1774,1775,1776,1777,1778,1493,1494,1495,1496,1497,1498,1499,1500,1501,1502,1503,1504,
1519,1520,1521,1522,1523,1524,1525,1526,1527,1528,1529,1530,1531,1532,1533,1534,1535,1536,1537,1538,1539,1540,1541,1542,1543,1544,1779,1780,1781,1782,1783,1784,1785,1786,1787,1788,1789,1790,1791,1792,1793,1794,1795,1796,1797,1798,1799,1800,1801,1802,1803,1804,1519,1520,1521,1522,1523,1524,1525,1526,1527,1528,1529,1530,
1545,1546,1547,1548,1549,1550,1551,1552,1553,1554,1555,1556,1557,1558,1559,1560,1561,1562,1563,1564,1565,1566,1567,1568,1569,1570,1805,1806,1807,1808,1809,1810,1811,1812,1813,1814,1815,1816,1817,1818,1819,1820,1821,1822,1823,1824,1825,1826,1827,1828,1829,1830,1545,1546,1547,1548,1549,1550,1551,1552,1553,1554,1555,1556,
1571,1572,1573,1574,1575,1576,1577,1578,1579,1580,1581,1582,1583,1584,1585,1586,1587,1588,1589,1590,1591,1592,1593,1594,1595,1596,1831,1832,1833,1834,1835,1836,1837,1838,1839,1840,1841,1842,1843,1844,1845,1846,1847,1848,1849,1850,1851,1852,1853,1854,1855,1856,1571,1572,1573,1574,1575,1576,1577,1578,1579,1580,1581,1582,
1597,1598,1599,1600,1601,1602,1603,1604,1605,1606,1607,1608,1609,1610,1611,1612,1613,1614,1615,1616,1617,1618,1619,1620,1621,1622,1857,1858,1859,1860,1861,1862,1863,1864,1865,1866,1867,1868,1869,1870,1871,1872,1873,1874,1875,1876,1877,1878,1879,1880,1881,1882,1597,1598,1599,1600,1601,1602,1603,1604,1605,1606,1607,1608,
1623,1624,1625,1626,1627,1628,1629,1630,1631,1632,1633,1634,1635,1636,1637,1638,1639,1640,1641,1642,1643,1644,1645,1646,1647,1648,1883,1884,1885,1886,1887,1888,1889,1890,1891,1892,1893,1894,1895,1896,1897,1898,1899,1900,1901,1902,1903,1904,1905,1906,1907,1908,1623,1624,1625,1626,1627,1628,1629,1630,1631,1632,1633,1634,
1649,1650,1651,1652,1653,1654,1655,1656,1657,1658,1659,1660,1661,1662,1663,1664,1665,1666,1667,1668,1669,1670,1671,1672,1673,1674,1909,1910,1911,1912,1913,1914,1915,1916,1917,1918,1919,1920,1921,1922,1923,1924,1925,1926,1927,1928,1929,1930,1931,1932,1933,1934,1649,1650,1651,1652,1653,1654,1655,1656,1657,1658,1659,1660,
1675,1676,1677,1678,1679,1680,1681,1682,1683,1684,1685,1686,1687,1688,1689,1690,1691,1692,1693,1694,1695,1696,1697,1698,1699,1700,1935,1936,1937,1938,1939,1940,1941,1942,1943,1944,1945,1946,1947,1948,1949,1950,1951,1952,1953,1954,1955,1956,1957,1958,1959,1960,1675,1676,1677,1678,1679,1680,1681,1682,1683,1684,1685,1686,
0,0,0,0,0,0,0,0,0,0,0,0,0,0,0,0,0,0,0,0,0,0,0,0,0,0,0,0,0,0,0,0,0,0,0,0,0,0,0,0,0,0,0,0,0,0,0,0,0,0,0,0,0,0,0,0,0,0,0,0,0,0,0,0,
0,0,0,0,0,0,0,0,0,0,0,0,0,0,0,0,0,0,0,0,0,0,0,0,0,0,0,0,0,0,0,0,0,0,0,0,0,0,0,0,0,0,0,0,0,0,0,0,0,0,0,0,0,0,0,0,0,0,0,0,0,0,0,0,
0,0,0,0,0,0,0,0,0,0,0,0,0,0,0,0,0,0,0,0,0,0,0,0,0,0,0,0,0,0,0,0,0,0,0,0,0,0,0,0,0,0,0,0,0,0,0,0,0,0,0,0,0,0,0,0,0,0,0,0,0,0,0,0
</data>
 </layer>
 <layer id="6" name="LadderLayer" width="64" height="24">
  <data encoding="csv">
0,0,0,0,0,0,0,0,0,0,0,0,0,0,0,0,0,0,0,0,0,0,0,0,0,0,0,0,0,0,0,0,0,0,0,0,0,0,0,0,0,0,0,0,0,0,0,0,0,0,0,0,0,0,0,0,0,0,0,0,0,0,0,0,
0,0,0,0,0,0,0,0,0,0,0,0,0,0,0,0,0,0,0,0,0,0,0,0,0,0,0,0,0,0,0,0,0,0,0,0,0,0,0,0,0,0,0,0,0,0,0,0,0,0,0,0,0,0,0,0,0,0,0,0,0,0,0,0,
0,0,0,0,0,0,0,0,0,0,0,0,0,0,0,0,0,0,0,0,0,0,0,0,0,0,0,0,0,0,0,0,0,0,0,0,0,0,0,0,0,0,0,0,0,0,0,0,0,0,0,0,0,0,0,0,0,0,0,0,0,0,0,0,
0,0,0,0,0,0,0,0,0,0,0,0,0,0,0,0,0,0,0,0,0,0,0,0,0,0,0,0,0,0,0,0,0,0,0,0,0,0,0,0,0,0,0,0,0,0,0,0,0,0,0,0,0,0,0,0,0,0,0,0,0,0,0,0,
0,0,0,0,0,0,0,0,0,0,0,0,0,0,0,0,0,0,0,0,0,0,0,0,0,0,0,0,0,0,0,0,0,0,0,0,0,0,0,0,0,0,0,0,0,0,0,0,0,0,0,0,0,0,0,0,795,796,0,0,0,0,0,0,
0,0,0,0,0,0,0,0,0,0,0,0,0,0,0,0,0,0,0,0,0,0,0,0,0,0,0,0,0,0,0,0,0,0,0,0,0,0,0,0,0,0,0,0,0,0,0,0,0,0,0,0,0,0,0,0,827,828,0,0,0,0,0,0,
0,0,0,0,0,0,0,0,0,0,0,0,0,0,0,0,0,0,0,0,0,0,0,0,0,0,0,0,0,0,0,0,0,0,0,0,0,0,0,0,0,0,0,0,0,0,0,0,0,0,0,0,0,0,0,0,0,655,656,657,2147484304,2147484303,0,0,
0,0,0,0,0,0,0,0,0,0,0,0,0,0,0,0,0,0,0,0,0,0,0,0,0,0,0,0,0,0,0,0,0,0,0,0,0,0,0,0,0,0,0,0,0,0,0,0,0,0,0,0,0,0,0,0,0,687,688,689,2147484336,2147484335,0,2697,
0,0,0,0,0,0,0,0,0,0,0,0,0,0,0,0,0,0,0,0,0,0,0,0,0,0,0,0,0,0,0,0,0,0,0,0,0,0,0,0,0,0,0,0,0,0,0,0,0,0,0,0,0,0,0,0,0,0,0,0,0,0,0,2714,
0,0,0,0,0,0,0,0,0,0,0,0,0,0,0,0,0,0,0,0,0,0,0,0,0,0,0,0,0,0,0,0,0,0,0,0,0,0,0,0,0,0,0,0,0,0,0,0,0,0,0,0,2110,0,0,0,0,0,0,0,0,0,0,2714,
0,0,660,661,2147484317,2697,0,0,0,0,0,0,0,0,0,0,0,0,0,0,0,0,0,0,0,0,0,0,0,0,0,0,0,0,0,0,0,0,0,0,0,0,0,0,0,0,0,0,0,0,0,0,0,0,0,0,0,0,0,0,0,0,0,2714,
945,946,947,948,2147484349,2714,0,0,0,0,0,0,0,0,0,0,0,0,0,0,0,0,0,0,0,0,0,0,0,0,0,0,0,0,0,0,0,0,0,0,0,0,581,582,0,0,0,649,650,0,0,0,0,0,0,0,0,0,0,0,0,0,0,2714,
690,691,692,693,694,2714,0,0,0,0,0,0,0,0,0,0,0,0,0,0,0,0,0,0,0,0,0,0,0,0,0,0,0,0,0,0,0,0,0,0,0,0,613,614,0,0,0,681,682,0,0,0,0,0,0,0,0,0,0,0,0,0,0,2714,
0,0,0,0,0,2731,0,0,0,0,0,0,0,0,2147484310,2147484309,2147484308,661,662,0,0,0,0,0,0,0,0,0,0,0,0,0,0,0,0,0,0,0,0,0,0,0,0,0,0,0,0,713,714,0,0,0,0,0,0,0,0,0,0,0,0,0,0,2714,
0,0,0,0,0,0,0,0,0,0,0,0,0,0,2147484342,2147484341,2147484340,693,694,0,0,0,0,0,0,0,0,0,0,0,0,0,0,0,0,0,0,0,0,0,0,0,0,0,0,0,0,745,746,0,0,0,0,0,0,0,0,0,0,0,0,0,0,2714,
0,0,0,0,0,0,0,0,0,0,0,0,0,0,0,0,0,0,0,0,0,0,0,0,0,0,0,0,0,0,0,0,0,655,656,657,2147484305,2147484304,2147484303,0,0,0,0,0,0,0,0,777,778,0,0,0,0,0,0,0,0,0,0,0,0,0,0,2731,
0,0,0,0,0,0,0,0,0,0,0,0,0,0,0,0,0,0,0,0,0,0,0,0,0,0,0,0,0,0,0,0,0,687,688,689,2147484337,2147484336,2147484335,0,0,0,0,0,0,0,0,713,714,0,0,0,0,0,0,0,0,0,0,0,0,0,0,0,
0,0,0,0,0,0,0,0,0,0,0,0,0,0,0,0,0,0,0,0,0,0,0,0,0,0,0,0,0,0,0,0,0,0,0,0,0,0,0,0,0,0,0,0,0,0,0,745,746,0,0,0,0,0,0,0,0,0,0,0,0,0,0,0,
0,0,0,0,0,0,0,0,0,0,0,0,0,0,0,0,0,0,0,0,0,0,0,0,0,0,0,0,0,0,0,0,0,0,0,0,0,0,0,0,0,0,0,0,0,0,0,777,778,0,0,0,0,0,0,0,0,0,0,0,0,0,0,0,
0,0,0,0,0,0,0,0,0,0,0,0,0,0,0,0,0,0,0,0,0,0,0,0,0,0,0,0,0,0,0,0,0,0,0,0,0,0,0,0,0,0,0,0,0,0,0,809,810,0,0,0,0,0,0,0,0,0,0,0,0,0,0,0,
0,0,0,0,0,0,0,0,0,0,0,0,0,0,0,0,0,0,0,0,0,0,0,0,0,0,0,0,0,0,0,0,0,0,0,0,0,0,0,0,0,0,0,0,0,0,0,841,842,0,0,0,0,0,0,0,0,0,0,0,0,0,0,0,
0,0,0,0,0,0,0,0,0,0,0,0,0,0,0,0,0,0,0,0,0,0,0,0,0,0,0,0,0,0,0,0,0,0,0,0,0,0,0,0,0,0,0,0,0,0,0,873,874,0,0,0,0,0,0,0,0,0,0,0,0,0,0,0,
0,0,0,0,0,0,0,0,0,0,0,0,0,0,0,0,0,0,0,0,0,0,0,0,0,0,0,0,0,0,0,0,0,0,0,0,0,0,0,0,0,0,0,0,0,0,0,0,0,0,0,0,0,0,0,0,0,0,0,0,0,0,0,0,
0,0,0,0,0,0,0,0,0,0,0,0,0,0,0,0,0,0,0,0,0,0,0,0,0,0,0,0,0,0,0,0,0,0,0,0,0,0,0,0,0,0,0,0,0,0,0,0,0,0,0,0,0,0,0,0,0,0,0,0,0,0,0,0
</data>
 </layer>
 <layer id="1" name="GroundLayer" width="64" height="24" opacity="0.9">
  <data encoding="csv">
0,0,0,0,0,0,0,0,0,0,0,0,0,0,0,0,0,0,0,0,0,0,0,0,0,0,0,0,0,0,0,0,0,0,0,0,0,0,0,0,0,0,0,0,0,0,0,0,0,0,0,0,0,0,0,0,0,0,0,0,0,0,0,0,
0,0,0,0,0,0,0,0,0,0,0,0,0,0,0,0,0,0,0,0,0,0,0,0,0,0,0,0,0,0,0,0,0,0,0,0,0,0,0,0,0,0,0,0,0,0,0,0,0,0,0,0,0,0,0,0,0,0,0,0,0,0,0,0,
0,0,0,0,0,0,0,0,0,0,0,0,0,0,0,0,0,0,0,0,0,0,0,0,0,0,0,0,0,0,0,0,0,0,0,0,0,0,0,0,0,0,0,0,0,0,0,0,0,0,0,0,0,0,0,0,0,0,0,0,0,0,0,0,
0,0,0,0,0,0,0,0,0,0,0,0,0,0,0,0,0,0,0,0,0,0,0,0,0,0,0,0,0,0,0,0,0,0,0,0,0,0,0,0,0,0,0,0,0,0,0,0,0,0,0,0,0,0,2217,2217,2218,2219,2220,2221,2222,2223,2220,2221,
0,0,0,0,0,0,0,0,0,0,0,0,0,0,0,0,0,0,0,0,0,0,0,0,0,0,0,0,0,0,0,0,0,0,0,0,0,0,0,0,0,0,0,0,0,0,0,0,0,0,0,0,0,0,2217,2217,2218,2219,2220,2221,2222,2223,2220,2221,
0,0,0,0,0,0,0,0,0,0,0,0,0,0,0,0,0,0,0,0,0,0,0,0,0,0,0,0,0,0,0,0,0,0,0,0,0,0,0,0,0,0,0,0,0,0,0,0,0,0,0,0,590,653,2217,2217,2218,2219,2220,2221,2222,2223,2221,2222,
0,0,0,0,0,0,0,0,0,0,0,0,0,0,0,0,0,0,0,0,0,0,0,0,0,0,0,0,0,0,0,0,0,0,0,0,0,0,0,0,0,0,0,0,0,0,0,0,0,0,0,0,622,653,2217,2217,2218,2219,2220,2221,2222,2223,2222,2223,
575,576,0,0,0,0,0,0,0,0,0,0,0,0,0,0,0,0,0,0,0,0,0,0,0,0,0,0,0,0,0,0,0,0,0,0,0,0,0,0,0,0,0,0,0,0,0,0,0,0,0,0,2217,2218,2219,2220,2221,2222,2223,2223,2223,2223,2223,2223,
607,608,0,2147484444,2147484443,0,0,0,0,0,0,0,0,0,0,0,0,0,0,0,0,0,0,0,0,0,0,0,0,0,0,0,0,0,0,0,0,0,0,0,0,0,0,0,0,0,0,0,0,2217,2218,2219,2220,2221,2222,2223,2223,2223,2223,2222,2223,2223,2222,2223,
639,640,0,2147484476,2147484475,0,0,0,0,0,0,0,0,0,0,0,0,0,0,0,0,0,0,0,0,0,0,0,2217,2218,2219,2220,2221,2222,2223,0,0,0,0,0,0,0,0,0,0,0,0,2217,2218,2219,2220,2221,2222,2223,2223,2223,2219,2217,2218,2219,2220,2221,2222,2223,
659,660,661,662,0,0,0,0,0,0,0,0,0,0,0,0,0,0,0,0,0,0,0,0,0,0,0,2217,2217,2218,2219,2220,2221,2222,2223,0,2217,2217,2218,2219,2220,2221,2222,2223,0,0,2217,2218,2219,2220,2221,2222,2223,2223,2219,2220,2221,2217,2218,2219,2220,2221,2222,2223,
691,692,693,694,0,0,0,0,0,0,0,0,0,0,0,0,0,0,2217,2218,2219,2220,2221,2222,2223,2217,2218,2217,2217,2218,2219,2220,2221,2222,2223,0,2217,2217,2217,2218,2219,2220,2221,2222,2223,2218,2219,2220,2221,2222,2223,2223,2218,2219,2220,2221,2222,2223,0,0,0,0,0,0,
2219,2220,2221,2222,2223,0,0,0,0,0,0,0,0,0,0,0,0,2217,2218,2219,2220,2221,2222,2223,2223,2217,2217,2218,2219,2220,2221,2222,2223,2223,0,2217,2217,2218,2217,2218,2219,2220,2221,2222,2223,2220,2221,2222,2223,2223,2223,2218,2219,2220,2221,2222,2223,0,0,0,0,0,0,0,
2217,2218,2219,2220,2221,2222,2223,2218,2219,2220,2221,2222,2223,0,0,2217,2217,2218,2219,2220,2221,2222,2223,2223,2223,2218,2219,2220,2221,2222,2223,2223,2223,0,0,2217,2218,2219,2217,2218,2219,2220,2221,2222,2223,2222,2223,2223,2217,2217,2218,2219,2220,2221,2222,2223,2222,2223,0,0,0,0,0,0,
2217,2218,2219,2220,2221,2222,2223,649,650,2220,2221,2222,2223,0,2217,2217,2218,2219,2220,2221,2222,2223,2223,2222,2223,2223,2223,2223,2223,2223,2223,2222,2223,0,0,2217,2218,2217,2218,2219,2220,2221,2222,2223,2223,2223,0,2217,2217,2218,2219,2220,2221,2222,2223,2222,2223,2223,0,795,796,593,594,0,
2217,2217,2218,2219,2220,2221,2222,681,682,2221,2222,2223,2223,2223,2218,2219,2220,2221,2222,2223,2223,2223,593,594,0,0,0,2217,2218,2219,2220,2221,2222,2223,2223,2217,2217,2218,2219,2220,2221,2222,2223,2223,0,0,0,2217,2218,2219,2220,2221,2222,2223,2223,2223,2223,2223,0,827,828,625,626,0,
0,2217,2218,2219,2220,2221,2222,713,714,2221,2222,2223,2222,2223,2219,2220,2221,2222,2223,2223,2223,0,625,626,0,0,0,0,2217,2218,2219,2220,2221,2222,2223,2223,2223,2219,2220,2221,2222,2223,2223,2223,0,0,0,0,0,0,0,2217,2218,2219,2220,2221,2222,2223,0,0,669,670,671,672,
0,2217,2218,2219,2220,2221,2222,745,746,2222,2223,2223,2222,2223,2223,2222,2223,2223,2223,2222,2223,2223,2147484358,706,707,708,709,710,0,0,2217,2218,2219,2220,2221,2222,2223,2223,2223,2223,2223,2223,2222,2223,0,0,0,0,0,0,0,0,0,0,0,0,0,0,0,0,701,702,703,704,
0,0,2217,2218,2219,2220,2221,777,778,2223,2223,2220,2221,2222,2223,2223,2223,2219,2220,2221,2222,2086,2086,2086,739,740,741,742,0,0,0,0,0,0,0,0,0,2217,2218,2219,2220,2221,2222,2223,0,0,0,0,0,0,0,0,0,0,0,0,0,0,2217,2218,733,734,735,736,
0,0,0,0,0,0,0,809,810,811,812,813,814,815,816,817,818,819,2220,2221,2086,2086,2086,2086,771,772,773,774,0,0,0,0,0,0,0,0,0,2217,2218,2219,2220,2221,2222,2223,0,0,0,0,0,0,0,0,668,669,670,671,2147484318,2147484317,2147484316,700,765,766,767,768,
0,0,0,0,0,0,0,841,842,843,844,845,846,847,848,849,850,851,2220,2221,2217,2218,2219,2220,803,804,2223,0,0,0,0,0,0,0,0,0,0,2217,2218,2219,2220,2221,2222,2223,0,0,0,0,0,0,0,0,0,701,702,703,2147484350,2147484349,2147484348,732,797,798,799,800,
2217,2217,2217,2217,2217,2217,2217,873,874,875,876,877,878,879,880,881,882,883,2217,2217,2217,2217,2217,2217,835,836,2217,2217,2217,2217,2217,2217,2217,2217,2217,2217,2217,2217,2217,2217,2217,2217,2217,2217,2217,2217,2217,2217,2217,2217,2217,2217,2217,733,734,735,2147484382,2147484381,2147484380,2222,829,830,831,832,
897,898,899,900,901,902,903,904,905,906,907,908,909,910,911,912,913,914,915,916,917,918,897,898,899,900,901,902,903,904,905,906,907,908,909,910,911,912,913,914,915,916,917,918,897,898,899,900,901,902,903,904,905,861,766,767,2147484414,2147484509,860,912,861,862,863,864,
929,930,931,932,933,934,935,936,937,938,939,940,941,942,943,944,945,946,947,948,949,950,929,930,931,932,933,934,935,936,937,938,939,940,941,942,943,944,945,946,947,948,949,950,929,930,931,932,933,934,935,936,937,938,894,863,2147484542,942,943,944,893,894,895,896
</data>
 </layer>
 <objectgroup id="14" name="End">
  <object id="152" x="0" y="112" width="32" height="48"/>
 </objectgroup>
 <objectgroup id="8" name="Ladder">
  <object id="48" x="80" y="160" width="16" height="64"/>
  <object id="49" x="1008" y="112" width="16" height="144"/>
 </objectgroup>
 <objectgroup id="9" name="Ground">
  <object id="59" x="0" y="352" width="848"/>
  <object id="70" x="976" y="232" width="31.6667" height="24"/>
  <object id="71" x="756.667" y="178" width="21.6667" height="22.3333"/>
  <object id="72" x="117.333" y="225.667" width="19.6667" height="24"/>
  <object id="100" x="928" y="352" width="32"/>
  <object id="118" x="672" y="176" width="32" height="32"/>
  <object id="119" x="832" y="144" width="16" height="16"/>
  <object id="121" x="0" y="352" width="1024" height="32"/>
  <object id="123" x="848" y="304" width="80" height="48"/>
  <object id="124" x="960" y="256" width="64" height="96"/>
  <object id="149" x="-48" y="352" width="48" height="32"/>
  <object id="156" x="224" y="208" width="80" height="32"/>
  <object id="163" x="912" y="96" width="80" height="32"/>
  <object id="164" x="528" y="240" width="96" height="32"/>
  <object id="165" x="0" y="160" width="80" height="48"/>
  <object id="166" x="352" y="272" width="96" height="16"/>
  <object id="168" x="352" y="248.182" width="32" height="23.8182"/>
 </objectgroup>
 <objectgroup id="10" name="Walls">
  <object id="97" x="848" y="304" height="48"/>
  <object id="98" x="928" y="304" height="48"/>
  <object id="99" x="960" y="256" height="96"/>
  <object id="101" x="0" y="0" height="352"/>
  <object id="102" x="1024" y="0" height="256"/>
  <object id="169" x="384" y="256" height="16"/>
 </objectgroup>
 <objectgroup id="11" name="Enemies">
  <properties>
   <property name="type" value=""/>
  </properties>
  <object id="138" x="256" y="192" width="16" height="16">
   <properties>
    <property name="type" value="PatrollingEnemy"/>
   </properties>
  </object>
  <object id="140" x="576" y="224" width="16" height="16">
   <properties>
    <property name="type" value="PatrollingEnemy"/>
   </properties>
  </object>
  <object id="141" x="400" y="256" width="16" height="16">
   <properties>
    <property name="type" value="PatrollingEnemy"/>
   </properties>
  </object>
  <object id="154" x="928" y="336" width="16" height="16">
   <properties>
    <property name="type" value="UnhingedEnemy"/>
   </properties>
  </object>
 </objectgroup>
 <objectgroup id="13" name="Items">
  <object id="151" x="80" y="336" width="16" height="16">
   <properties>
    <property name="type" value="Page"/>
   </properties>
  </object>
 </objectgroup>
 <objectgroup id="15" name="MovingPlatform">
  <object id="171" x="815.5" y="80" width="47.5" height="18">
   <properties>
    <property name="rangeX" type="float" value="100"/>
    <property name="speed" type="float" value="1.5"/>
   </properties>
  </object>
 </objectgroup>
 <layer id="16" name="MovingPlatformLayer" width="64" height="24">
  <data encoding="csv">
0,0,0,0,0,0,0,0,0,0,0,0,0,0,0,0,0,0,0,0,0,0,0,0,0,0,0,0,0,0,0,0,0,0,0,0,0,0,0,0,0,0,0,0,0,0,0,0,0,0,0,0,0,0,0,0,0,0,0,0,0,0,0,0,
0,0,0,0,0,0,0,0,0,0,0,0,0,0,0,0,0,0,0,0,0,0,0,0,0,0,0,0,0,0,0,0,0,0,0,0,0,0,0,0,0,0,0,0,0,0,0,0,0,0,0,0,0,0,0,0,0,0,0,0,0,0,0,0,
0,0,0,0,0,0,0,0,0,0,0,0,0,0,0,0,0,0,0,0,0,0,0,0,0,0,0,0,0,0,0,0,0,0,0,0,0,0,0,0,0,0,0,0,0,0,0,0,0,0,0,0,0,0,0,0,0,0,0,0,0,0,0,0,
0,0,0,0,0,0,0,0,0,0,0,0,0,0,0,0,0,0,0,0,0,0,0,0,0,0,0,0,0,0,0,0,0,0,0,0,0,0,0,0,0,0,0,0,0,0,0,0,0,0,0,0,0,0,0,0,0,0,0,0,0,0,0,0,
0,0,0,0,0,0,0,0,0,0,0,0,0,0,0,0,0,0,0,0,0,0,0,0,0,0,0,0,0,0,0,0,0,0,0,0,0,0,0,0,0,0,0,0,0,0,0,0,0,0,0,0,0,0,0,0,0,0,0,0,0,0,0,0,
0,0,0,0,0,0,0,0,0,0,0,0,0,0,0,0,0,0,0,0,0,0,0,0,0,0,0,0,0,0,0,0,0,0,0,0,0,0,0,0,0,0,0,0,0,0,0,0,0,0,0,143,149,150,0,0,0,0,0,0,0,0,0,0,
0,0,0,0,0,0,0,0,0,0,0,0,0,0,0,0,0,0,0,0,0,0,0,0,0,0,0,0,0,0,0,0,0,0,0,0,0,0,0,0,0,0,0,0,0,0,0,0,0,0,0,0,0,0,0,0,0,0,0,0,0,0,0,0,
0,0,0,0,0,0,0,0,0,0,0,0,0,0,0,0,0,0,0,0,0,0,0,0,0,0,0,0,0,0,0,0,0,0,0,0,0,0,0,0,0,0,0,0,0,0,0,0,0,0,0,0,0,0,0,0,0,0,0,0,0,0,0,0,
0,0,0,0,0,0,0,0,0,0,0,0,0,0,0,0,0,0,0,0,0,0,0,0,0,0,0,0,0,0,0,0,0,0,0,0,0,0,0,0,0,0,0,0,0,0,0,0,0,0,0,0,0,0,0,0,0,0,0,0,0,0,0,0,
0,0,0,0,0,0,0,0,0,0,0,0,0,0,0,0,0,0,0,0,0,0,0,0,0,0,0,0,0,0,0,0,0,0,0,0,0,0,0,0,0,0,0,0,0,0,0,0,0,0,0,0,0,0,0,0,0,0,0,0,0,0,0,0,
0,0,0,0,0,0,0,0,0,0,0,0,0,0,0,0,0,0,0,0,0,0,0,0,0,0,0,0,0,0,0,0,0,0,0,0,0,0,0,0,0,0,0,0,0,0,0,0,0,0,0,0,0,0,0,0,0,0,0,0,0,0,0,0,
0,0,0,0,0,0,0,0,0,0,0,0,0,0,0,0,0,0,0,0,0,0,0,0,0,0,0,0,0,0,0,0,0,0,0,0,0,0,0,0,0,0,0,0,0,0,0,0,0,0,0,0,0,0,0,0,0,0,0,0,0,0,0,0,
0,0,0,0,0,0,0,0,0,0,0,0,0,0,0,0,0,0,0,0,0,0,0,0,0,0,0,0,0,0,0,0,0,0,0,0,0,0,0,0,0,0,0,0,0,0,0,0,0,0,0,0,0,0,0,0,0,0,0,0,0,0,0,0,
0,0,0,0,0,0,0,0,0,0,0,0,0,0,0,0,0,0,0,0,0,0,0,0,0,0,0,0,0,0,0,0,0,0,0,0,0,0,0,0,0,0,0,0,0,0,0,0,0,0,0,0,0,0,0,0,0,0,0,0,0,0,0,0,
0,0,0,0,0,0,0,0,0,0,0,0,0,0,0,0,0,0,0,0,0,0,0,0,0,0,0,0,0,0,0,0,0,0,0,0,0,0,0,0,0,0,0,0,0,0,0,0,0,0,0,0,0,0,0,0,0,0,0,0,0,0,0,0,
0,0,0,0,0,0,0,0,0,0,0,0,0,0,0,0,0,0,0,0,0,0,0,0,0,0,0,0,0,0,0,0,0,0,0,0,0,0,0,0,0,0,0,0,0,0,0,0,0,0,0,0,0,0,0,0,0,0,0,0,0,0,0,0,
0,0,0,0,0,0,0,0,0,0,0,0,0,0,0,0,0,0,0,0,0,0,0,0,0,0,0,0,0,0,0,0,0,0,0,0,0,0,0,0,0,0,0,0,0,0,0,0,0,0,0,0,0,0,0,0,0,0,0,0,0,0,0,0,
0,0,0,0,0,0,0,0,0,0,0,0,0,0,0,0,0,0,0,0,0,0,0,0,0,0,0,0,0,0,0,0,0,0,0,0,0,0,0,0,0,0,0,0,0,0,0,0,0,0,0,0,0,0,0,0,0,0,0,0,0,0,0,0,
0,0,0,0,0,0,0,0,0,0,0,0,0,0,0,0,0,0,0,0,0,0,0,0,0,0,0,0,0,0,0,0,0,0,0,0,0,0,0,0,0,0,0,0,0,0,0,0,0,0,0,0,0,0,0,0,0,0,0,0,0,0,0,0,
0,0,0,0,0,0,0,0,0,0,0,0,0,0,0,0,0,0,0,0,0,0,0,0,0,0,0,0,0,0,0,0,0,0,0,0,0,0,0,0,0,0,0,0,0,0,0,0,0,0,0,0,0,0,0,0,0,0,0,0,0,0,0,0,
0,0,0,0,0,0,0,0,0,0,0,0,0,0,0,0,0,0,0,0,0,0,0,0,0,0,0,0,0,0,0,0,0,0,0,0,0,0,0,0,0,0,0,0,0,0,0,0,0,0,0,0,0,0,0,0,0,0,0,0,0,0,0,0,
0,0,0,0,0,0,0,0,0,0,0,0,0,0,0,0,0,0,0,0,0,0,0,0,0,0,0,0,0,0,0,0,0,0,0,0,0,0,0,0,0,0,0,0,0,0,0,0,0,0,0,0,0,0,0,0,0,0,0,0,0,0,0,0,
0,0,0,0,0,0,0,0,0,0,0,0,0,0,0,0,0,0,0,0,0,0,0,0,0,0,0,0,0,0,0,0,0,0,0,0,0,0,0,0,0,0,0,0,0,0,0,0,0,0,0,0,0,0,0,0,0,0,0,0,0,0,0,0,
0,0,0,0,0,0,0,0,0,0,0,0,0,0,0,0,0,0,0,0,0,0,0,0,0,0,0,0,0,0,0,0,0,0,0,0,0,0,0,0,0,0,0,0,0,0,0,0,0,0,0,0,0,0,0,0,0,0,0,0,0,0,0,0
</data>
 </layer>
</map>
