<?xml version="1.0" encoding="UTF-8"?>
<map version="1.10" tiledversion="1.10.2" orientation="orthogonal" renderorder="right-down" width="32" height="32" tilewidth="32" tileheight="32" infinite="1" nextlayerid="2" nextobjectid="1">
 <tileset firstgid="1" source="../tilesets/WEGZURUNI/oldcitys.tsx"/>
 <layer id="1" name="Tile Layer 1" width="32" height="32">
  <data encoding="csv">
   <chunk x="-32" y="16" width="16" height="16">
66,66,66,66,66,66,66,66,66,66,66,66,66,66,66,66,
66,66,66,66,66,66,66,66,66,66,66,66,66,66,66,66,
66,66,66,66,66,66,66,66,66,66,66,66,66,66,66,66,
66,66,66,66,66,66,66,66,66,66,66,66,66,66,66,66,
66,66,66,66,66,66,66,66,66,66,66,66,66,66,66,66,
66,66,66,66,66,66,66,66,66,66,66,66,66,66,66,66,
66,66,66,66,66,66,66,66,66,66,66,66,66,66,66,66,
66,66,66,66,66,66,66,66,66,66,66,66,66,66,66,66,
66,66,66,66,66,66,66,66,66,66,66,66,66,66,66,66,
66,66,66,66,66,66,66,66,66,66,66,66,66,66,66,66,
66,66,66,66,66,66,66,66,66,66,66,66,66,66,66,66,
66,66,66,66,66,66,66,66,66,66,66,66,66,66,66,66,
66,66,66,66,66,66,66,66,66,66,66,66,66,66,66,66,
48,42,42,42,42,42,42,42,42,42,42,42,42,42,42,42,
49,50,50,50,50,50,50,50,50,50,50,50,50,50,50,50,
57,58,58,58,58,58,58,58,58,58,58,58,58,58,58,58
</chunk>
   <chunk x="-16" y="16" width="16" height="16">
66,66,66,66,66,66,66,66,66,66,66,66,66,66,66,0,
66,66,66,66,66,66,66,66,66,66,66,66,66,66,66,0,
66,66,66,66,66,66,66,66,66,66,66,66,66,66,66,0,
66,66,66,66,66,66,66,66,66,66,66,66,66,66,66,0,
66,66,66,66,66,66,66,66,66,66,66,66,66,66,66,0,
66,66,66,66,66,66,66,66,66,66,66,66,66,66,66,0,
66,66,66,66,66,66,66,66,66,66,66,66,66,66,66,0,
66,66,66,66,66,66,66,66,66,66,66,66,66,66,66,0,
66,66,66,66,66,66,66,66,66,66,66,66,66,66,66,0,
66,66,66,66,66,66,66,66,66,66,66,66,66,66,66,0,
66,66,66,66,66,66,66,66,66,66,66,66,66,66,66,0,
66,66,66,66,66,66,66,66,66,66,66,66,66,66,66,0,
66,66,66,66,66,66,66,66,66,66,66,66,66,66,66,0,
42,42,42,42,42,42,42,42,42,42,42,42,42,42,42,42,
50,50,50,50,50,50,50,50,50,50,50,50,50,50,50,50,
58,58,58,58,58,58,58,58,58,58,58,58,58,58,58,58
</chunk>
   <chunk x="0" y="16" width="16" height="16">
0,0,0,0,0,0,0,0,0,0,0,0,0,0,0,0,
0,0,0,0,0,0,0,0,0,0,0,0,0,0,0,0,
0,0,0,0,0,0,0,0,0,0,0,0,0,0,0,0,
0,0,0,0,0,0,0,0,0,0,0,0,0,0,0,0,
0,0,0,0,0,0,0,0,0,0,0,0,0,0,0,0,
0,0,0,0,0,0,0,0,0,0,0,0,0,0,0,0,
0,0,0,0,0,0,0,0,0,0,0,0,0,0,0,0,
0,0,0,0,0,0,0,0,0,0,0,0,0,0,0,0,
0,0,0,0,0,0,0,0,0,0,0,0,0,0,0,0,
0,0,0,0,0,0,0,0,0,0,0,0,0,0,0,0,
0,0,0,0,0,0,0,0,0,0,0,0,0,0,0,0,
0,0,0,0,0,0,0,0,0,0,0,0,0,0,0,0,
0,0,0,0,0,0,0,0,0,0,0,0,0,0,0,0,
42,42,42,42,42,42,42,42,42,42,42,42,42,42,42,43,
50,50,50,50,50,50,50,50,50,50,50,50,50,50,50,51,
58,58,58,58,58,58,58,58,58,58,58,58,58,58,58,59
</chunk>
  </data>
 </layer>
</map>
